/* XPM */
static char *_9cc2abf164148e9bef30afb37c927fb[] = {
/* columns rows colors chars-per-pixel */
"60 60 243 2 ",
"   c #2C3B02",
".  c #373B02",
"X  c #2C2800",
"o  c #473A06",
"O  c #58340A",
"+  c #50340D",
"@  c #643B0C",
"#  c #623C14",
"$  c #673914",
"%  c #3A4607",
"&  c #385309",
"*  c #3D4A15",
"=  c #2B5005",
"-  c #3F7924",
";  c #3C6E19",
":  c #454B15",
">  c #45531C",
",  c #475219",
"<  c #51450B",
"1  c #674418",
"2  c #725A1F",
"3  c #6D490F",
"4  c #497B1C",
"5  c #56771D",
"6  c #486715",
"7  c #7D542A",
"8  c #795D38",
"9  c #725423",
"0  c #5B6A27",
"q  c #4F7B32",
"w  c #72722C",
"e  c #7A5F41",
"r  c #834A17",
"t  c #B66D19",
"y  c #8E5B27",
"u  c #896929",
"i  c #977438",
"p  c #AD6734",
"a  c #A97C37",
"s  c #B67537",
"d  c #B66932",
"f  c #90641B",
"g  c #C9781C",
"h  c #CE7C2C",
"j  c #C97726",
"k  c #D27928",
"l  c #C87B36",
"z  c #C96E25",
"x  c #997A41",
"c  c #A57342",
"v  c #C57E45",
"b  c #1E980E",
"n  c #1C9414",
"m  c #239C15",
"M  c #22961C",
"N  c #249B1C",
"B  c #2B9C1C",
"V  c #239714",
"C  c #358716",
"Z  c #26A115",
"A  c #29A416",
"S  c #26A11A",
"D  c #2BA41C",
"F  c #2EA81D",
"G  c #32AC1D",
"H  c #36B31D",
"J  c #3AB51E",
"K  c #36B91E",
"L  c #3CB91E",
"P  c #2EB21E",
"I  c #1F9120",
"U  c #259B23",
"Y  c #2A9E22",
"T  c #2A9D2A",
"R  c #249824",
"E  c #359E2B",
"W  c #2CA423",
"Q  c #2DA922",
"!  c #2DA429",
"~  c #2FA829",
"^  c #31A525",
"/  c #32AC25",
"(  c #32A62B",
")  c #33AB2B",
"_  c #3AAD2C",
"`  c #3BAB25",
"'  c #36B324",
"]  c #3AB524",
"[  c #3DBA25",
"{  c #36B32B",
"}  c #3BB52B",
"|  c #36BA2B",
" . c #3DBA2B",
".. c #36BA27",
"X. c #35AC32",
"o. c #39AD34",
"O. c #39A834",
"+. c #3DB532",
"@. c #3EBA32",
"#. c #3EB339",
"$. c #3CB636",
"%. c #2FA038",
"&. c #45881B",
"*. c #41BD1F",
"=. c #47952A",
"-. c #589832",
";. c #51902C",
":. c #619336",
">. c #688B32",
",. c #48AC28",
"<. c #41B624",
"1. c #41BB25",
"2. c #42B52D",
"3. c #42BC2C",
"4. c #4BB82D",
"5. c #4AAB35",
"6. c #59A53B",
"7. c #57AA36",
"8. c #42B533",
"9. c #42BC32",
"0. c #43BB3A",
"q. c #48B636",
"w. c #56B53A",
"e. c #53A527",
"r. c #61B23C",
"t. c #3DC028",
"y. c #3EC032",
"u. c #43C224",
"i. c #44C12C",
"p. c #4AC42D",
"a. c #4CC82C",
"s. c #52C82E",
"d. c #45C232",
"f. c #4BC533",
"g. c #4CCA34",
"h. c #4CC639",
"j. c #4ECA3A",
"k. c #43C038",
"l. c #52CC34",
"z. c #53CD3B",
"x. c #55C739",
"c. c #55D235",
"v. c #56D23C",
"b. c #5AD33C",
"n. c #5BD93B",
"m. c #57D63B",
"M. c #50D12F",
"N. c #62D63D",
"B. c #6B9449",
"V. c #719557",
"C. c #59AB42",
"Z. c #4DB442",
"A. c #67B945",
"S. c #568843",
"D. c #4DC842",
"F. c #54CE41",
"G. c #5EC646",
"H. c #56D142",
"J. c #5AD541",
"K. c #5DD943",
"L. c #5ED949",
"P. c #65C747",
"I. c #62DB44",
"U. c #63D949",
"Y. c #75C955",
"T. c #B6833A",
"R. c #888139",
"E. c #CD812C",
"W. c #D8872C",
"Q. c #DA912F",
"!. c #CE8938",
"~. c #DD8B34",
"^. c #DA8939",
"/. c #DA9034",
"(. c #E28C2D",
"). c #E99C3D",
"_. c #E7983B",
"`. c #EA9337",
"'. c #EBA73D",
"]. c #F2A73E",
"[. c #AA954A",
"{. c #B1A96B",
"}. c #D68844",
"|. c #DD9845",
" X c #D3904C",
".X c #E39343",
"XX c #EB9C44",
"oX c #E99848",
"OX c #F19C43",
"+X c #E7994C",
"@X c #ECAC4B",
"#X c #E9A349",
"$X c #F3A445",
"%X c #F4A54C",
"&X c #F3AB4B",
"*X c #FBAB49",
"=X c #EDB14D",
"-X c #FCB34D",
";X c #F6B54B",
":X c #E7AA57",
">X c #F3AB52",
",X c #F9AD53",
"<X c #F3A453",
"1X c #EEB354",
"2X c #EBB75A",
"3X c #F4B454",
"4X c #FDB453",
"5X c #F3BA54",
"6X c #FDBA55",
"7X c #F4B459",
"8X c #FBB55C",
"9X c #FDB95B",
"0X c #F2B95C",
"qX c #D0B668",
"wX c #E9B463",
"eX c #FEBD64",
"rX c #F4BA64",
"tX c #EDAA63",
"yX c #FDC25D",
"uX c #F6C157",
"iX c #F3C14E",
"pX c #DFC17B",
"aX c #FCC46A",
"sX c #FECB6C",
"dX c #FAC466",
"fX c #FDCC74",
"gX c #F7CA7A",
"hX c #FED37C",
"jX c #FFD577",
"kX c #E9C475",
"lX c #F8CC86",
"zX c #FBD584",
"xX c #FEDB84",
"cX c #F6D487",
"vX c #FFDF95",
"bX c #FFE68D",
"nX c #FFEC9D",
"mX c #FFE894",
"MX c #FFEEA4",
"NX c #FFE8A8",
"BX c #FFF3A4",
"VX c #FFF8AA",
"CX c #FFF3B6",
/* pixels */
"} ] n.c.b { #.n +.9.} 3.[ [ } } } [ } @.@.$.$.+.} }  .3.' 3.8.} }  .[  .] 1. .} }  . . .[ [  .[ 9. . .]  .} 1.[ 3. .+.9.",
"} 3.b.l.F W ! X.+.9. .3.}  .} [  . .9.D +.$.$.+.@.}  .] d.d. . .}  . .} 3.[ [ 3. .]  . .]  .3.]  .] d.[  .3.] [  .3.{ ! ",
"/ 3.v.v.3.S N 0.8.9.'  .}  . . .2.8.8.n ) 0.+.@.}  .[ [ m.g.K [ }  .} ]  . . .[ [ 1.] 3.3.] 3.3.3.[ L.j.] [  . .3.} / N ",
"3.] 3.9.3.} { 8.+.9. .9.} } d.H.2.^ B +.0.) b } } ' g.m.i.t.t.[  . .f.H.f.H.z.H l.v.H i.J.3.2.} ] m @.@.[ z.F.} F.f.+.$.",
"3. .} +.}  .9.} 9.} G  . . .d.z.x.2.V } _ W S } f.3.9.h.} ] ]  .] ] 3.z.1.j.l.1.a.l.g.g.j.} @.@._ W ! ! } f.D.) f. .} 9.",
"] 9.$.$. .3.3.] 3./ Z '  . .[ [ U.3.m } / S } h.F.] } } } } 9. .i.[ [ ]  .G i.I.1.L I.g.H } @.$.$.Z.R R 9.} ! N } [  .} ",
" . .N !  .z.z.1. .3.] 3.} }  . . . . .9.@.} 9.' }  .9.} 9.}  .z.i.[ [ ' 3.Z ' U.f.1.n.i.] 9.@.~ N 0.T M  .F W $.} 1.3. .",
" . .N ! _ z.v.H i.d.} 3.3.f.d.}  . . . .}  . . . . . . .}  .3.z.p.[  . . .Z / H.] 3.f.1.3.]  .} ^ 0.! W 9.F ~ @. .[ }  .",
" .} 0.) b H.l.L v.z.}  .1.K.f.}  . . .] 3.3.] 1.] m.j.' i.<.] x.f.x.3. .@.+.9.} 2.1.<.1.J <.1.3.} 0.+.} +.9.{  .3.[  . .",
"9.9.+.{ b F.v.n.l.3.}  . .[  .9.y.'  .z.1.<.l.p.i.J.t.i.[ ] 4.<.3.3.]  .9.} +.9.3.3.<.1.f.f.] 3.9.} ' 3. .} d.d.H.3.'  .",
"Q / 9.} Q h.l.l.g.[  . .[ [  . .} 3.3.x.s.s.I.p.1.c.] [ [ 1.3.] [  . .} }  .{ +.{ } 0.2.h.F.| |  .} f.[ } 3.] 1.z.d. . .",
"S Z ]  .9. .] ] [ [ 3.} ] 1.} } 2.3.` <.s.N.N.s.L 1.1.] 3.] } }  .| | |  .@. .9.N D 8.+.N ~ | | [ [ b.u.] 3.] 1. .} } @.",
"}  . . . .9.3.1.1.] [ 3.v.z. .9.8.B B ] z.J.f.z.x.] 3.2.' Z @.@.@.@.| |  .| } } 8.Y B +.M ~ 0. .v.u.l.m.1.H v. . .D S { ",
"@. .[ [ 1.[ } } 1.] 1.] F.h.] } 8.Y B / F.z.` h.P.5.w.w.5.( O.q.Z.5.O.8.9.} }  .+._ W 0.! ) $. .b.u.p.v.g.p.z. .3.G Q { ",
"9.'  .g.J.[ 3.9.} 1.v.1.}  . .9.8.0.Q Q  .9.2.5.-.-.B.B.B.B.q S.V.q q =.5.2.' }  .y.} @.9.9.3.] [ ] }  .z.J.@.9. .[  . .",
"} d.] [ i.l.j.} 3.] i.] D 9. . .8.9.{ @.{ 8.A.4 = % . % . . % . o o %   4 Y.G.} } |  .} } H ] 3.1.' D } f.i.W { 3.[  . .",
" . .1.] [ l.j.[  .} 3.F m 0.0.+.8.@.@.{ 0.=.6 w [.[.{.{.{.[.[.[.T.T.t f 8 0 r.3.2. .} [ [ i.1.]  ./ m }  .} / { 9.' 9.] ",
" . .[ [ 1.1.] [ } 9.+._ Y o.O.M /  .} 8.A.&.. x lXvXCXCXMXxXhXfXsX7XXX}.r X 5 A.5.}  .K u.K.3.3.3. . .@.} @.9.} } 9. . .",
"} } f.f.} } 1. .! ! $._ R o.T ! @.} x.e.= R.qXkXnXkXwXrXeX7X1X3X1XdX7XoX!.a 2 & =.q.} g.a.v.b.3. .{  . . . . . .D  .Q } ",
"}  .z.z.@.{ } @.U R +.$.U T M +.+.` A.>.o a cXzXnXfX<X<X%X%X%X&X8XeX9X&XQ.!.r o q C.8.z.b.f.x.2.3.}  .} 3.3.]  .Z } A / ",
"}  .}  .@.D m { $.#.Y ) U n ( 8.w.-.% i qXkXNXlXtX^.j h h h k k ^.>X@X9X$XXX!.a 1 % 6.q.' 3.] 3.[  .3.3.] ] ] ]  .9.}  .",
"3.3.} ] 9.} / 9.$.$.) $.{ _ 8.5.6.>.< i gXgXMXlX<X~.j E.E.h j k ~.>X-X4X&X%X~.!.r + >.6.q.[ 1.] 3. .j.K.1.[ z.z.1.[ } ] ",
"[ ] i.3.] 3.d.} 9.@.0.+.+.9.2.7.& 2 pXlXMXzXwX|.g _.;X;X=X=X*X*XXXt (.-X9XaX$XXXl c o = w.P  .t. .] 3.H.z.1.z.b.[ [ 1. .",
"[ 1.v.l.[ ] [ }  .}  .} 9.} 3.7.: 7 cXzXmXgX#XXXE.#X5XiXuX5X*X$XXXh `.OX7XsX-X$Xl p # * w.t...| } 9.] 1.K.p.l.l.H 1.[ [ ",
" .] v.v.1.[ u.m. . .i.] 9. .3.A.: 8 VXcX2X|.h +X9X>X2XxXmXdX>XXX#X,X`.j #XsXuX6Xh p O * 7.[ } @. .S ' } z.1.K.l.L J.z.H ",
"9.] j.J.d.1.M.c.d.' H 1.} } 9.Y.: 8 CXcX5X#Xh oX9XdXgXzXxXdX>X~.~.,X$X^.wXhXuX3X^.s # , 7.1.9.@.+.W / ' z.3.f.1.v.b.f.[ ",
"/ /  .z.3.f.n.[ [  .[ ] S } F.A.* e CXzX5X'.k +X8XjXnXlXrX3X,Xk ~.9X9X1XzXBXfXeX.Xv 1 > 7.g.b.q.+.} F F 3. . .i.K.f.[ [ ",
") m F h.d.[ g.] ] } 3.] F W 0.C.* 8 NXgX3X).j XX0XhXVXgX1X-X,Xg W.6X4X1XcXVXfX8X.Xv # > 5.1.x.2.{ 9.{ ' 3. .' 3.j.[ ] [ ",
"0./ / d.9.]  . . .}  .@.} W } C.: 7 zXdX9X).g ).0XhXBXkX5X6X,Xg Q.6X-X7XcXVXsX0X.Xl $ > 7.' 3.2.+.@.@.} 9.3.}  . . . . .",
"9.@.9.} }  .}  .@.k.} @.} @.} 6.: 7 hXyX9XXXg _.0XhXBXgX5X6X,Xj Q.6X-X7XcXVXdX3X~.l $ > 7. .9.} { } @.}  . . .3.} 3.3.} ",
" .] [  .@. .'  .} +.}  .} 9.] 7.: 7 xXyX4XOXk ).5XsXmXfX5X6X&Xg /.6X4X3XzXnXrX,XW.l $ > 5.@.) W Q { @.@. . ./ ' @. . .} ",
" . .[ [ } @. . .W W 9.@.+.} } 7.: 7 hX5X*XOXk .X3XuXsXrX5X6X&Xg Q.6X4X@XgXxX7X&XW.j @ > C.@.W W  .9.} }  .+.m S 9.{ } 3.",
"}  .] [ 3.{ m / $.W X.0.N B 3.7.: 7 fX6X-X_.h .X3X5XiX5X6X,XOXg W.6X4X>XdXfX1X@XW.l # > 7.} 9.}  . . .} W N ^ +.+.V S 3.",
"} 9.f.i.3. .W W +.( ( X.Y _ 3.e.: 9 :X-X6X).h |.,X'.'.;X4X~.h W.`.&X7XaXaXsX=X#Xj d O * w.[ } f. . .3.} ) ! $.$.! W '  .",
"} } J.J.[ } 9.W ) ) W W ( +.2.7.o 9 :X'.yX$Xj .XOX].$X$X*X~.h .X).6XaXfXaXsX1X<Xz d O , 5.[ b.U.3.]  .@.9.$.0.! S } 9.} ",
" . .i.i.v.f. .} { +.+.+.+.9.9.Y.  1  X@XdX-X,X^.t (.].(.W.W.^.@X7XrXxXVXxXaX8X<X}.s + = w.m.l.<.<.3. .} } } 9.} ' 3.3.} ",
" . .' ] z.d.] 3.3. .9. . .} 3.G.- 0 i }.yX*X-XXXE._.]._.Q._.).3X0XhXzXbXsX3X$XoXs u 6 &.4.m.p.] ]  .@. .h. .@.9. .[ }  .",
"] [ 3.9. .] 1. . .} 3.] [ 1.} 8.C.:.X y eX&X6X-X,X>X>X>X1X3X&X@XdXBXbXsXeX,XoX+X@ . :.Y.p.g.] }  .} 9.3.U.k.@.' [ [  . .",
"} d./ / 9.3.] [  .f.j.[ g.z.3.} q.e.6 w u T.&X*X&XeXlXlXzXaXdX5XuXsXdXrX+X}.p y 0 ; =.P.9.k.N ) 9. . . .f.[ 3.1.1.a.g.3.",
"} } N ! } 9.[ [ ' g.m.i.c.g.]  .} 5.A.4 X 2 :X#X4XhXMXNXMXfXsXdXyX@X@X#X}.v 3 X ;.C.E x. . .) o.9.' F  .'  . .1.i.l.g.] ",
"{ } N 0.$.} 3.3. .} [ K.i.K }  .+.0.,.C -.w 3 s 7X&X8X7X0X3X=X,X%X<X~.!.y @ 5 -.7.5.4.<.[  .} 9.@./ b ' 3.3.] g.J.H ] [ ",
"{ +.! X.! {  . . .] i.i.K i.[  .N ! 9.2.P.;.  u wX:X:X:XwX:X:X:XtX+X}.T.2   &.w.4.2.] [ [ [ 3.} @.} }  .9. .1.1.3.] [ K ",
") ) X.W N { @.3.}  .'  .[ [  .} ) ! ` 2.x.P.6.5 < 1 1 $ 1 # 1 1 @ @ @ o 5 -.,.4.}  .h.i.' } @.@.@. .9.9.{ / 3.]  . . .] ",
") ) $.~ W } @.9.@.d.{  . .'  . .0.) ^ q.v.i.4.&.& , , , > > > * , : , = C w.1.c. . .L.f.] d./ $.@.} } 9._ W }  .9.} } [ ",
"+.$.9.} @.@.} +.W _ 9.$.@.9.} 3.} q.q.`  . .2.w.w.7.7.A.P.w.C.C.6.w.,.4.q.2.' g.j. .j.<.3.9.N ) +. .9.@.$.N / 8./ _ }  .",
"@.@.} [ 3. .9.9.S W ) 0.+.) }  .9.2.2.3...| 9.2.2.3.p.g.g.[ } 8.8. .K K 9. .} d.g. .] ] 3./ N +.9.} { W $.! ! ) M $.9.@.",
"@.} 1.i.H  .9.} 0.) U #.U N }  .{ d.] 1.} @.9.+.2.f.v.g.i.[ [  . .' 9.3.]  .} }  . .K [  .W / 9. .} / N ) o.T T ! $.+.$.",
"@. .v.v.]  .' m $.U U X.R X.9. . .' [ 3.]  .S Q 3.} f.3.3. .] [  .K.2.` l.J.9.8.9. .[ [ @.+.} } ] 9.} { W $.U Y 0./ U $.",
" .@.H.g.[  .' D @.) N W ! $.+.} j.1.3.b.*.1.G G  . .}  .@.9.}  .d.z.z.3.b.v.9.+./ /  .[ 9.} ' 9. .] 9.@./ } / /  .' / { ",
"9.{ } }  . .3. .9.{ W { +.$.@. .b.l.<.I.p.*.1.1.}  .} @.$.0.+.9.] i.j.z.c.1.9./ n _ 3.] }  .9.] [  . .9.}  .3.[ 9.3. .} ",
"S ) 9. .3.] }  .3. .} 9. .}  . .3.I.l.c.p.b.m.[  . .+.@.} { W S 3.3.z.z.l.[ F N X.{ } 3.9.} @.j.H.3.' } @. . . .' ]  . .",
"N ) @.} f.1.[ [ ]  .9. . . . .[ ] f.b.c.z.K.p.]  .' / @.9.} Q m '  .f.1.p.1.Z ! 0.$.9.' } 9.{ h.j. .j. . . .' 1.f.3. .@.",
"}  . .1.l.p.[ 1. .3.} } 9. .3. .3.1.c.p.l.j.] 1.3./ S { @.3.} / A 3.} [ [ [ } @.$.+.9.S N +.+.9.] p.U.d.} 3.[ i.K.f.}  .",
"3. .1.1.a.l.1.H z.H.} 9.} D } 9. .1.p.H 1.3.3. .9.} ) $.+.} 9.{ '  . .3.] [ 9.} 9.+.+.{ W N +./ ] i.f.3.} } j.J.j.1.} } ",
" .] 1.L *.n.M.p.v.H.3.9._ S W } } [ [ [ 3.} 9.{ } 9.0.0.{ { 9. .9.} 3.3.1.[ 3.} { 9.8.+.+.N ) m A ] ] i. .' h.L.3.' } 9.",
" .9.U.b.L l.a.K.3.] } +.+.9.m / 3.3. . .} 9.} ) Y $.0.+.N S 9.} } 3. .f.K.[ H.H.9.9./ N $.B W / ] i.[ ] } 3. . .3.A A  .",
"@.@.G ] [ v.l.v.]  .9.} 9.} / } @. .3.D / 0.8.o.M ! #.( n / @.} } [  .i.i.f.z.j.3.} { { { +._ } 3. .] 3.} A 9. . .} '  .",
"0.{ m G  .v.j.f.3.3.3./ 3.3. .3. .} } m N ) o.#.R T O.M ! } @.3. .i.[ H 1.v.v.H 3.9.+.$.9.9.{ 9. .} 3.j.f.F } _ } @.}  .",
"+.@.}  .] 1.]  .}  .} S / +. .} } k.H. .! R R #.O.T %.I +.} +. .[ j.f.[  .d.p.[ [ 3./ +.9. .} 3.9.] ] f.F.} +.N / +.@. .",
"{ @.9.3.3.] ] } } 9.{ S } 9.@.} @.9.z.3.#.T M #.#.T %.O.{ 3.@.} [ f.i.[  .] ] 1.[ } m ^ +.} } } }  . .3.h. .9.W ^ +.@. ."
};
