/* XPM */
static char *_637ab6a290b4dd38a41b4f482b3ca0a[] = {
/* columns rows colors chars-per-pixel */
"60 60 256 2 ",
"   c #1C1900",
".  c #2D1C00",
"X  c #2A1900",
"o  c #371902",
"O  c #340E03",
"+  c #1D2B00",
"@  c #172800",
"#  c #1A3700",
"$  c #062A00",
"%  c #2C2401",
"&  c #232C00",
"*  c #292A02",
"=  c #332200",
"-  c #392803",
";  c #243300",
":  c #2A3802",
">  c #363503",
",  c #3C2F17",
"<  c #491903",
"1  c #521505",
"2  c #482A03",
"3  c #582801",
"4  c #593606",
"5  c #5A3917",
"6  c #45350D",
"7  c #6B2A04",
"8  c #752B08",
"9  c #683904",
"0  c #753A04",
"q  c #673618",
"w  c #75391B",
"e  c #752B16",
"r  c #713928",
"t  c #5C2F1A",
"y  c #0C4B00",
"u  c #274807",
"i  c #275905",
"p  c #344F10",
"a  c #366817",
"s  c #326E0C",
"d  c #3D5B22",
"f  c #3A6223",
"g  c #3A7029",
"h  c #1E7504",
"j  c #5C4317",
"k  c #4F4E0D",
"l  c #694603",
"z  c #784A07",
"x  c #7A5709",
"c  c #684517",
"v  c #754916",
"b  c #7A5617",
"n  c #695711",
"m  c #476A1A",
"M  c #594527",
"N  c #455B26",
"B  c #4F4F2C",
"V  c #664829",
"C  c #695537",
"Z  c #795B35",
"A  c #754E2B",
"S  c #486528",
"D  c #4C722F",
"F  c #6D6E2D",
"G  c #7C6016",
"H  c #655A4F",
"J  c #6E6E52",
"K  c #707070",
"L  c #8B301A",
"P  c #933827",
"I  c #AA3F2D",
"U  c #814A05",
"Y  c #865704",
"T  c #885917",
"R  c #8E5815",
"E  c #8A6417",
"W  c #9A691A",
"Q  c #85771A",
"!  c #95650C",
"~  c #A37016",
"^  c #9B462C",
"/  c #904D31",
"(  c #A44935",
")  c #B74B37",
"_  c #B8543A",
"`  c #AC4E34",
"'  c #856428",
"]  c #976728",
"[  c #8B6833",
"{  c #986737",
"}  c #947333",
"|  c #A67627",
" . c #AA7937",
".. c #AE6E2C",
"X. c #C2573C",
"o. c #C14C36",
"O. c #995345",
"+. c #AA5846",
"@. c #B95945",
"#. c #AE5B53",
"$. c #976D44",
"%. c #9B7448",
"&. c #947651",
"*. c #A77A46",
"=. c #B2714F",
"-. c #837A74",
";. c #C25A43",
":. c #1C9718",
">. c #1E960E",
",. c #249B1B",
"<. c #259918",
"1. c #358C14",
"2. c #2BA51C",
"3. c #27A519",
"4. c #31A61C",
"5. c #39B71C",
"6. c #2FB41D",
"7. c #279A25",
"8. c #36952C",
"9. c #2CA424",
"0. c #2BA826",
"q. c #34AC2B",
"w. c #37A927",
"e. c #36B425",
"r. c #3BB525",
"t. c #35BA24",
"y. c #3CBA25",
"u. c #36B42A",
"i. c #3CB52B",
"p. c #36BB2B",
"a. c #3CBA2B",
"s. c #3AA934",
"d. c #3CB533",
"f. c #3CBB32",
"g. c #3CB439",
"h. c #37B834",
"j. c #2DAD2C",
"k. c #1D9D1F",
"l. c #43B91D",
"z. c #448626",
"x. c #568A38",
"c. c #4A9A35",
"v. c #559738",
"b. c #4A932E",
"n. c #41BB25",
"m. c #42B62C",
"M. c #42BB2C",
"N. c #47B927",
"B. c #48AA38",
"V. c #57AC39",
"C. c #43B533",
"Z. c #42BB32",
"A. c #48B738",
"S. c #52B334",
"D. c #53B43B",
"F. c #55B83A",
"G. c #4FAF2B",
"H. c #61A63E",
"J. c #3BC227",
"K. c #3CC134",
"L. c #43C12C",
"P. c #4AC72B",
"I. c #53CA2B",
"U. c #45C333",
"Y. c #4BC533",
"T. c #4BC837",
"R. c #52CC34",
"E. c #53CC3B",
"W. c #57C737",
"Q. c #55D134",
"!. c #56D23C",
"~. c #5BD43B",
"^. c #5BD83A",
"/. c #4FD236",
"(. c #62D63B",
"). c #62C836",
"_. c #3DBB40",
"`. c #5A9345",
"'. c #538942",
"]. c #629746",
"[. c #6C8E4C",
"{. c #57A945",
"}. c #4BB743",
"|. c #57B545",
" X c #50AC47",
".X c #69AF4D",
"XX c #55CA42",
"oX c #5AD545",
"OX c #4CC741",
"+X c #65C946",
"@X c #67D846",
"#X c #7AC252",
"$X c #BD943A",
"%X c #AD862F",
"&X c #8D8020",
"*X c #C59738",
"=X c #EEB43C",
"-X c #F3B53D",
";X c #F1AF3E",
":X c #D1A332",
">X c #BD9654",
",X c #B1894C",
"<X c #B69267",
"1X c #8C9654",
"2X c #C99A49",
"3X c #C69B57",
"4X c #D3994B",
"5X c #D8A746",
"6X c #D8A859",
"7X c #D1AA52",
"8X c #E4AD4C",
"9X c #E8AC4B",
"0X c #EAB448",
"qX c #F3BB45",
"wX c #F4BC4B",
"eX c #F7B849",
"rX c #E6AD57",
"tX c #EAB657",
"yX c #F4BC54",
"uX c #F7BB58",
"iX c #C39A68",
"pX c #C49B76",
"aX c #D9AA68",
"sX c #D6AB79",
"dX c #D5AF72",
"fX c #E9B768",
"gX c #F5BB64",
"hX c #E9B977",
"jX c #E8B16A",
"kX c #E89253",
"lX c #87C65E",
"zX c #F9C14E",
"xX c #F4C35C",
"cX c #FAC257",
"vX c #E7C25C",
"bX c #F9C566",
"nX c #EEC379",
"mX c #F5C876",
"MX c #EEC062",
"NX c #6B7380",
"BX c #7799B4",
"VX c #7A9294",
"CX c #8B8D8F",
"ZX c #8A9DAD",
"AX c #92A8B5",
"SX c #ABB2B1",
"DX c #D7B187",
"FX c #D6AF8A",
"GX c #E6BD90",
"HX c #F4C786",
"JX c #F0CA89",
"KX c #F9D7A7",
"LX c #9DB6C9",
"PX c #B2C6D4",
"IX c #ABCBE9",
"UX c #C7D6EB",
/* pixels */
"i.r.^.Q.>.i.g.:.d.Z.i.M.y.y.a.a.M.r.p.f.f.d.m.n.a.a.p.a.i.i.a.a.a.y.M.a.t.J.i.Z.i.y.J.J.p.f.C.A.Z.a.a.r.a.i.n.y.M.a.d.Z.",
"i.M.!.R.4.9.9.s.d.Z.a.M.a.a.a.y.M.a.f.0.d.Z.m.m.a.e.p.a.Z.Z.m.i.M.M.i.i.L.a.d.i.a.r.J.t.t.a.Z.d.Z.i.U.y.a.M.y.y.a.M.i.0.",
"e.M.!.!.M.2.,.A.C.C.e.a.a.a.a.a.i.f.g.:.q.C.C.m.a.a.u.a.oXW.A.A.C.A.|.D.r.M.d.Z.y.y.t.y.L.y.a.a.a.y.oXT.r.y.a.M.M.i.0.,.",
"M.r.M.Z.M.i.i.C.d.Z.a.Z.a.a.U.!.a.2.7.g.}.q.<.i.a.a.T.oXS.1.h c.V.s s s G.+XXXe.E.!.5.P.~.n.y.t.e.<.f.f.y.E.XXi.XXU.d.d.",
"M.a.i.d.i.i.Z.i.Z.r.4.a.a.a.U.E.E.i.<.g.q.0.3.r.f.a.U.M.F.s $ [.[.& . X m #XW.M.W.W.R.R.R.y.p.i.q.9.9.0.i.T.OXq.T.a.i.Z.",
"r.Z.d.d.a.M.M.r.M.e.3.e.a.a.y.y.@XM.<.d.q.3.e.U.oXi.y.m.F.s + 6 j *.=.=.n i G.@XN.N.@XR.6.e.f.h.f.}.7.7.Z.i.0.,.i.y.a.i.",
"a.a.,.0.a.E.E.y.a.M.r.M.a.a.a.n.n.N.C.Z.f.i.L.e.y.y.t.M.F.a = 1 7 4XkXkXc @ G.@XY.n.@XM.r.K.f.0.,.A.7.,.a.2.9.d.i.n.M.a.",
"M.a.,.0.q.E.!.5.L.U.i.M.M.U.U.y.y.y.a.i.i.i.a.M.N.n.L.i.D.g . O.=..... .9 @ c.~.t.L.Y.M.M.e.i.u.0.A.9.9.Z.2.0.f.a.y.a.a.",
"a.i.A.q.>.XXR.5.!.E.i.a.n.oXU.e.y.K.a.u.M.M.m.m.n.!.T.e.|.a = A [ ,X} G S i V.M.y.t.y.a.r.i.f.f.d.A.d.i.d.Z.u.a.M.y.a.a.",
"Z.Z.d.i.>.XX!.^.R.n.i.a.a.y.a.a.p.t.e.E.M.r.).S.N.~.L.i.|.S % . : 1XF $ D .XA.e.a.p.p.a.Y.Y.e.Z.Z.i.e.Z.a.i.U.U.XXM.e.i.",
"9.e.Z.i.9.T.R.R.R.y.a.i.y.y.a.f.h.f.a.E.Y.P.@XI.n.T.y.S.x.p = C z.V.v.1.w.m.i.M.i.d.f.f.Y.W.i.y.i.i.Y.y.i.M.r.n.E.U.a.a.",
"3.3.r.a.Z.a.r.r.y.y.M.i.r.n.a.i.f.h.i.n.Y.(.(.I.n.r.S.b.u % - B .XB.B.F.Z.e.a.m.,.9.d.d.<.w.y.y.y.y.!.L.y.M.r.n.a.i.i.f.",
"i.a.a.a.a.Z.M.n.n.r.y.M.!.XXa.Z.d.<.<.r.R.^.P.I.Y.F.v.u o r r X p {.|.w.i.Z.m.M.a.3.7.g.,.0.Z.a.!.P.I.^.n.5.E.a.a.2.3.u.",
"f.a.y.y.n.y.i.i.M.5.n.y.XXT.r.i.w.9.<.w.!.P.5.N.+Xv.u X w O./ r % p b.S.C.m.e.r.a.e.9.C.9.q.f.a.!.P.P.!./.P.E.a.M.4.0.u.",
"f.e.a.Y.oXy.M.Z.i.M.!.n.i.a.a.M.m.A.0.0.U.M.y.D.`.: o r ( ( ` ^ t o p x.G.t.a.f.a.Z.p.a.M.Z.f.e.y.r.i.a.E.oXf.Z.a.y.a.a.",
"i.U.r.n.L.E.E.i.M.r.L.r.2.Z.a.m.m.i.i.f.i.C.S.c.u - A #.+.@.@.@.+.V % p G.T.OXi.a.i.a.y.a.e.i.a.a.e.2.r.U.L.9.u.M.y.a.M.",
"i.a.M.r.a.E.E.a.a.u.a.2.,.C.C.C.C.i.p.p.m.S.b.y @ , r r A r r A A r * @ y XXoXi.i.M.y.t.M.A.a.a.f.u.<.i.u.i.0.i.M.r.A.i.",
"i.a.a.y.M.M.y.a.i.f.f.j.7.A.q.<.w.f.p.t.Z.S.c.z.[.6 = o < < 2 o o o N x.z.s.i.M.C.M.n.5.Y.oXM.M.u.a.i.i.U.f.f.a.a.M.C.C.",
"i.r.P.P.a.i.M.m.9.0.A.s.7.s.9.0.d.C.U.U.p.a.Z.}..Xu @ B C - - Z 5 & S .XF.Z.i.i.Z.e.t.P.I.Q.!.n.a.U.a.a.e.a.i.a.3.a.w.B.",
"d.a././.i.i.m.C.0.7.s.C.7.7.:.q.Z.r.T.!.t.p.J.m..Xi u J > } Z 6 J # s |.w.u.i.f.q.q.y.Q.P.P.Q.y.a.e.M.a.U.i.Z.e.3.u.2.w.",
"i.a.p.p.d.9.<.i.i.i.7.s.7.:.w.Z.M.5.5.J.t.t.5.N.lXi u F l hXaXl F # a  X7.j.f.u.:.q.M.y.a.M.t.y.a.r.m.m.Z.i.Z.i.h.K.e.y.",
"Z.f.p.t.Z.i.q.Z.i.A.s.s.s.B. X{.D.F.S.S.D.F.S.|.lXp p 1X4 >X,X4 [.# a .X{.8.B.B.B.{.|.V.|.|.D.D.D.F.).+XM.i.E.XXf.h.a.e.",
"i.e.L.J.5.n.U.i.Z.i.Z.C.|. Xg f f S N N f f f d S , , C o q 5 o B * , B N d f p N N N S N d S N d a V.).~.5.Q.!.a.a.M.m.",
"a.M.Q.I.5.5.y.a.m.i.M.m.B.s @ % % . . . % X % . X < < < 1 < < < o , o o . . = . . X = X . = X . % @ s V.@XN.I.Y.5.M.m.m.",
"i.r.!.~.n.5.l.^.M.a.a.C.{.# k 3X2X$X2X2X$X7X} 3 / / ( ( ^ ^ ( / O.A < E 5X*X*X2X2X,X2X>X*X*X*X*X2Xn + a .XS.(.P.5.~.Q.5.",
"Z.r.R.~.L.n.I.Q.a.a.a.F.i > fXgXgXbXuXxXzXxX .7 ` @.;.o.X.X.;.@.O.1 ] bXqXeXuXuXuXxXtXxXwXzXwXzXzXtXc   m V.N.I.Q.!.P.5.",
"s.w.M.R.L.P.(.n.a.i.C.b.u x 8XgXaX,X2XtXqXcX .7 ` ) ) o.o.) ) ) 1 w gX0XeXeXgXgXuXbXxXvXxXxXcXzX=XwX6Xl * a F.y.oXU.t.t.",
"s.,.2.T.L.y.Y.r.a.i.|.s % 6XyX8Xc O o 4XwXyX .8 ` ` ) _ _ X.;.( 1 c fX0X0X9X..| ~ ! ~ ~ W W ! *XwX;XyX7XX D F.a.T.p.t.a.",
"A.w.6.L.L.y.N.M.a.A.z.: G rXbX,X, J 4 3XuXxX*.< e 8 8 7 7 7 0 9 o V nXgXbXfX3 < Y Y Y Y z R 9 R uX;XeX5X= S S.n.i.f.a.a.",
"Z.M.a.p.a.M.i.m.w.|.D   2XbXaXj K SXj >XtXuX .9 { { { { { ] { { 6 2 T x x x 2 q nXfXfXfXfXhX .R bX;XeX5X= S |.r.i.Z.a.a.",
"m.i.p.f.Z.m.e.Z.A.z.& [ tXuX,XM PXSX5 3XxXbX| z hXrXaXaXaXjXsXiX*.$.] ] ]  .,X3XaX6XjXrXrXjX] E cX=XwX5X= S  Xd.M.M.a.a.",
"a.a.f.i.i.Z.f.C.b.a = ,XbXrX2 H PXAXM 3XuXuX| z fXY 9 z z 0 T 0 v v v v b v b v z z 0 0 0 jXW ! zX=XyX2X= S 8.7.Z.r.r.a.",
"r.M.i.m.Z.i.,.s.`.@ Q tXyX>X, CXZXZXM 3XyXcX| z hXz dX<XpXsX,XFXsXGXpXDX<XDXiXiXsXdXHXhXz aX| ! zX-XuX4X- d s.g.g.<.2.f.",
"r.y.Z.Y.i.i.<.c.S 2 $XxXfX4 H ZXIXAXM 3XuXcX| x hXU iX2 pX%.4 FXq Z %.*.O FX5 Z <X' KXJXb aX] ! cX=XuX4X- d  Xh.9.9.u.f.",
"y.y.oXoXn.N.D.b.  b MXtX,X6 LXBXIXAXB iXyXcX| z jXz sX,XsX[ <XKXc V $.=.< pXA &.,X$.KXJXv aX} R cXqXqX5X= S |.9.3.i.a.e.",
"t.t.a.a.R.S.|.s 6 3XyXxXl &.SXZXPXSXM 3XyXcX .z hXz sXc [ %.4 sXA <X%.=.O pX5 A <X2 b sXv sX} E xXqXqX:X- N D.f.u.f.a.a.",
"J.t.a.a.R.F.`.: l gX0XcXz 5 V M M j 3 4XzXcX| z jXl DX<XsXsXiXDXFXFXGXFXpXGXpXsXGX<X<XsXA pX' R cX-XzX5X= S |.C.f.f.i.i.",
"e.Z.a.i.M.G.a > 3XuXqX:X$X . .*. . . .9X-XeX| b nXb v [ T z T v A c 9 b b b b b z b b z 9 z 9 W cX0XyX$X. m F.y.i.i.Z.m.",
"A.d.q.i.a.D.u - fXeX=X-X0XyXuXyXuXeXyXeX-XcX| 4 >X,X,X*.2X6X9XrX,X< E tX5X5X8X5X5X5X5X5X8X5X8X0X0XMX3X2 ; g A.t.J.P.R.N.",
"g.C.9.0.f.}.p 2 rXeXeXwXqXwXyXwXeXeXeXqX-XzX$Xl z z b 9 Y bXyXgX3 9 mXwXzXwXuXbXbXbXxXbXcXcXcXxXbX>X2 * D |.r.J.J./.Y.l.",
"i.d.3.f.f.B.p 2 aXgXrXrXtXtXtXrXtX9XtXyXqXqXMXmXmXmXHX3XY MXtX%X3  .tXeXeXuX .] ] ] W W W W W W } 4 * S H.m.y.U.oXe.a.M.",
"w.i.3.j.3.B.p = n z U U z z z z z z Y 5XwXqX*Xx Y Y R 9 Y mX6X9 3 hXgX0XeX~ 3 ' ' ' T R W R E E E G p ].G.n.y.L.f.h.f.d.",
"B.d.j.0.:.B.a + ; % l ] ] ] { ] ] ] 4 2XzXzX| 9 W W ] { 3XhXdX9 3 sX6XtXbX0 3 hXfXfXdXaXjXaXfXrXtX7Xp v.B.i.m.m.d.d._.g.",
"8.w.f.0.2.A.v.`.].m ' aXA 5 M M 4 } z 2XyXcX| T aXz 8 w w 3 9 3 1 9 3 | gXl 3 hX,X2 j j 5 c 4 W uXtXp v.B.9.A.m.C.d.g.h.",
"C.C.a.e.a.a.A.D.c.s Q JXC K CXK C Z v 3XyXcX| T mX0 L ^ / 7 e ( ^ ^ 7 ] mXl 3 hX%.M CXCXNXCXH ' mXvXk ].|.8.4.Z.w.q.u.p.",
"i.M.i.n.t.5.i.C.s.i Q JXM SXPXAX-.C v 4XyXyX| ] hXU ` @.#.e P @.) @.7 ] nX9 3 HX&.H UXIXBXPXK C $X%X> N D 8.7.q.<.C.a.a.",
"K.p.m.M.y.K.f.g.|.s Q HXV CXAXZXH Z v 2XeXcX| E mX0 ` _ #.L P ;.X._ 8 { JXl 3 hX&.H AXAXBXZXK o l ! E G @ f s.:.w.C.i.f.",
"p.p.@XE.a.u.u.,.}.s Q nXC CXAXZXJ Z l 4XeXzX~ ] HX0 ^ ;.( 7 P I ) _ e { HXl 7 HX,XC SXAXVXAX-.O ,XmXbXaX% g 8.9.A.w.<.i.",
"i.M.R.Y.y.a.u.9.A.s Q HXC SXPXAX-.2 4 5XeXzX| 4 v 3 ` _ P 1 P L ) _ 7 { nX9 3 z 9 j C C M M M o %XyX0X2X% S  X0.m.e.6.e.",
"A.r.y.y.y.a.f.C.A.s Q HXV CXSXK o [ aX8XqXeX8X6X5 < ` X.+.e P ) ) _ 7 ] mX6X4X4X2X3X>X>X3X3X3X7X8XzXwX2X= S |.f.Z.M.a.p.",
"7.q.f.y.a.t.i.f.A.s &X .2 c c 6 O %.MXqX-X-X0XmXA 1 ` ) #.e L ;.o._ 8 ] uXwXeXwXzXzXzXyXxXyXyXyXeX;XeX2X= S |.f.e.r.p.p.",
"7.s.Z.r.L.J.a.i.|.s Q rX3X3X3X{ O $.gXwXqXwXwXgXA < +.@.#.e L ;.) @.8 ] bX0XeXqX-X-XqXwXqXqXeXqXeXeXuX7Xo S D.a.T.a.p.f.",
"g.d.i.n.Q.P.a.m..Xm Q nXaXjXjX] O $.nX8XtX9XrXjXc 1 +.+.+.e P _ +.+.e { fXrX9X9X9X8X8X8X9X8X9XtX8XrXrX>X= m S.5.^.T.f.f.",
"f.i.m.n.P.Q.N.G.z.a k b x b b l o j b x x x z b 4 < 5 q q 3 3 q e q 2 5 b x x Y x x x x x x x x x x b n & a +X^.Y.M.a.f.",
"M.y.N.l.l.(.Y.G.y $ ; & + + & ; : ; @ ; & ; & & & : * * * * * * % : # # # ; ; + & & & + + ; ; + + @ + + # a W.~.M.r.e.f.",
"r.M.@X(.l.~.W.+XV.v.x.].`.`.g '.'.v.`.`.].x.].'.D `.`.`.D D `.].].x.c.{..Xv..X.X`.`.'.D `.x.D `.'.`.`.`.'.{.A.y.M.2.2.a.",
"f.f.4.m.N.!.R.~.S.S.F.A.F.B.B. X}.A.}.8.s.|. XB.8.8. XB.7.B.D.S.G.G.A.A.W.W.+X+XD.B.B.B.A.B.B.B.A.C.S.D.V.w.N.a.m.m.w.i.",
"h.u.<.w.m.!.Y.L.M.a.i.0.p.a.d.d.f.i.i.,.,.q.i.C.7.7.j.:.9.q.i.y.n.L.y.6.n.~.R.5.y.a.Z.d.f.u.d.Z.a.y.n.W.F.4.M.e.d.C.i.m.",
"h.h.d.a.r.y.y.a.i.f.u.k.6.p.f.f.r.U.!.a.0.,.<.i.s.7.j.k.g.d.a.a.i.E.T.a.n.P.P.n.y.a.w.q.L.a.f.f.p.y.e.E.oXi.f.:.q.g.C.m.",
"j.f.Z.f.a.y.a.a.i.f.h.0.u.J.f.i.a.L.Q.a.g.7.<.i.B.7.j.s.g.f.a.i.m.Y.U.a.N.r.r.n.n.y.<.2.a.a.f.i.p.p.a.Z.Y.Z.f.0.j.g.C.m."
};
