/* XPM */
static char *_c4b74e6d5024ef8a51972c478ce9245[] = {
/* columns rows colors chars-per-pixel */
"60 60 11 1 ",
"  c #3DBA2B",
". c #3FBC2A",
"X c #3BB82B",
"o c #48C22C",
"O c #53CB2E",
"+ c #60D52F",
"@ c #2E9E30",
"# c #39B32B",
"$ c #289232",
"% c #36AD2D",
"& c #32A62E",
/* pixels */
"# +O$#X$%.         .        XX                    XX      ..",
"# ++&@@%X         X&#      Xo.X      X   X  X     o.X    .%&",
"# +O.@$.      XX  X$%.    XX+OX   XXX    .  .     +oX X  .&$",
"  .  XX   .   o+ @$#.%$# Xo+..X  Xo+o+O#O+#o+.X.#$X.XOO +.X ",
"         #&X XoOO%$X%@$XoXoO X X XoOoOoooOOOo   #@@&XOo&o.  ",
"    X..X.%$X  XX+o$ &$XoOXXX  X.. XXXXo+o.+O#    .$$X &$X   ",
" X$& O+XXXX  XX . X      XX   XOoX   @%+o.+.X .&@.$$.@@X    ",
" X@&%O+Xoo   OoXX       X..X  XOo.   $%O..O.  .%& @@.@@.    ",
" X.%$OOX+OX .+OX   XX XXX+OX  XOoO   . XXXX XX  .     .XX   ",
". .%$O++OX   .    XO. Ooo+oX     .   X      ooX X XX  Xo+.X ",
"%& #@oOOoX   XX    +oo+O.O     XXX      ## XOOX   o.X XoO.  ",
"@$  .XXXX   XX   XX#O++OXX        XX    @@.X$&. XX+oX XXXXX ",
"XX XX     X +OX #$$#O+oOOX .%@.   . X   #@$X$&. +oO+.XO..&$X",
"  X .     X OOX X@$%OO#oOX  #&%#.%&#    .%@X@%. +oo+oo+. &@X",
"  Xo+.X  XOoXX XX.&&o.     X.X$&o&$%.XX X . .   X  X++.  .. ",
"  X.oOOX Xo%@     XXXX       #$%&$# XOOX  X XX  .%@Xoo@# XX ",
"    XOOX  .&$ XXX        XX  #@#&@  XO+X    .o X.%$X #&#  X ",
"  XX XX    %$X#$&.XX    .@$   .  .  X      Xo+..      . . . ",
"X OOX   @& #$%$@#XoO X X %& XXX XX  .   ..XOO+O.X    X #@X&%",
"# OOX## @@X#$@$#.XO+ X  ..  o.X  X #&X  &% OOo+X   X   #$X@&",
"  XX.@$XX#$%$$&.X X   Xo+oX.+OX    #$@ #$% X          XX  XX",
"  XX #%  X%#%%# X X XXX.+O +OoX   X.%$X@@.. X X  XO+ XOO    ",
"  ..X .   . ..   X X o.Xo+o+ X. X X# &&@X#@#     XoO+ ++ X  ",
" X+OX  X  X XXXXX  #X+.X o+oXo+.X.%$##$$#$@X     .X.+oOOX X ",
" X+O.Xo+.X   X OoX X OOOX.+oX.O.X #&X %%X%X  XX  @% Oo+OX+OX",
". O+o.O+.X  XXo+OX  XX+OX.O.XXXX   .  .. . XX.. X@&#OoooO+OX",
"&&X+oo+   .#$XOOXXX      X  ..  XXX  XX  XX XO+XX.@@. X.+oX ",
"%$&ooooX   #@&.o OoX  XX X  &% X.O.X OoX    XooX  ##   .o.X ",
".&&.oXX  X   @XX.+oX    X   @@.Xo+oXo+OX   X XX .  .   XXX  ",
"                XXX.     X X   XX.+o++   .@%. .#% XX  .     ",
"        ##         %%  %#     X.oXOO+OX X %# .%@&  X  %%    ",
"      X @@. XX    X$@  @&.X#X XO+#Oo+oX X . X.@@.X  X $@.XX ",
"# XX #$&X@%.$@.X  X#@#@@ .&$#   oO ...X  XXX  XXX   @$&XX$@.",
"# oo X@@X&&%$% XXXX.&@@% %@@X  XooX XX  X.o.XXoo X  &&X#&@% ",
"  ++ Xo@&&&$&. . .X.&$#.#$&.    XX    X Xo+OX.++ X  ...&$X. ",
"  .o+oXXXXXX XoOoOX X#X  XX  XXX  X X.+oX.oOo+O    XXX    X ",
"  XXOoX      X.O.oX         Xoo X   X.+o#% Oo+oX  X o.X     ",
"  . XX X XX   XXXX XXX XX X X++.X XX XX.%$.Oo+#X XX.+oX  XX ",
" .%%.   XoO#OO     .  XoOXOoX.. . $&.    &@+..$&. . o.XXXOOX",
"X $&.X   o+oOOX   X&# Xo+o+oX  %%X@@%X X.%&O X%#.#&XXXXooOOX",
"%#$X.    X.+oX  X #$%  XO++.X .@$ .$$#.   .X  . .&$#. XO+XX ",
"##$X@%.X  .o.  X$&.#O+.X.o.    X&@X%%X X XXX XXX XXX  X .   ",
"%%&@$#  X XXX  X&@% ++  XXXXX X.#%X.. Xo  o.X   X   X# XX X ",
"&&.@@.  . X XXXX.%&XOoX      X X . XX X+.o+oX XXXXX %@  XX  ",
"     X .&%.X.. XX         XOOX XXX    XOO o.X $% X . $@.&&.X",
"  XX   .@@# #&X X X X   X.oOOX        XoOXXX.&$#  #&X@@%$#.X",
"       X.@$.@$#   XX    Xo+OoX  XX     XX  X.@%.X.&$%X@@&.X ",
"  ++X.%$.@@&$XX XX . .@&..o. X Xo+.Xo+.X.    XX X X#@#$@o&$X",
"  OOX.#@.&$@&.  oo +oX&%.XXXX  X.+oo++.#&# XX    X  &X&%.%& ",
"  XX   . X@%.   +OX+o.o         X.OO+X.%$&.XXX XX   . .   . ",
"@%. XX X  X     .+O+o++X  . X @@ .OO+X@@%X    XO+ XXX  XXXX ",
"$&.Xo.X      XX XO++O+oX #%   @$# ooo @@.  ## XoO.o.X X.o.X ",
"X  X+OX.     .   X+oOOX .&$X X.&$.XXX   X  @$# .Xo+oX Xo+oX ",
"  XXo+.#O+  X@#.  o..    ##    ##   X XX   #&$#%%.o. Xo+o.  ",
"  ...+oO+O  X$&X  XXX   X  X#X      . .   X #$#$@.XX XO+.## ",
"X.++X+O+oX X  $&.X .. .&$.  $&.XX XO+X+OX.&$X@@%#       .@@.",
" X&# +O+     X%#  X&& .%$&#&$@.X  XooO+o  #& X&   X.#&  .%% ",
" X$&.OooX  #X .    $$%%X$$&$@#     XX+O#  ..  . X XOo@.##.. ",
"#         #$%.X Xo+#%$$X%@&$#.  XOoX ooX  %# XX   Xo+X $@.X ",
"#    X    X&#   X.O.X$$X#$@%X    ooX XX   $&.X    X.o  &%.  "
};
