/* XPM */
static char *c03a6afa11044ed8b6438b687a99b479[] = {
/* columns rows colors chars-per-pixel */
"60 60 256 2 ",
"   c #161510",
".  c #281905",
"X  c #361A03",
"o  c #271818",
"O  c #341919",
"+  c #2C0C0A",
"@  c #062B06",
"#  c #1D2C00",
"$  c #192601",
"%  c #093906",
"&  c #1B3402",
"*  c #162519",
"=  c #163917",
"-  c #0D2B15",
";  c #222C00",
":  c #292503",
">  c #342301",
",  c #372804",
"<  c #273403",
"1  c #372717",
"2  c #2D2C10",
"3  c #191B24",
"4  c #241B25",
"5  c #3A1E2A",
"6  c #1C2529",
"7  c #1D3029",
"8  c #272729",
"9  c #332926",
"0  c #36342D",
"q  c #292B33",
"w  c #2B3534",
"e  c #343533",
"r  c #333934",
"t  c #3B3A3C",
"y  c #383638",
"u  c #2F3230",
"i  c #501D0D",
"p  c #4A2A04",
"a  c #583504",
"s  c #472717",
"d  c #563917",
"f  c #522D0D",
"g  c #653901",
"h  c #6B3816",
"j  c #4A1926",
"k  c #50342E",
"l  c #683934",
"z  c #6F2C2A",
"x  c #6C1A13",
"c  c #10420B",
"v  c #31530D",
"b  c #306E10",
"n  c #345627",
"m  c #38762F",
"M  c #1D5D1E",
"N  c #504C0E",
"B  c #684607",
"V  c #7A4903",
"C  c #775709",
"Z  c #795915",
"A  c #6C4C13",
"S  c #46671A",
"D  c #514C30",
"F  c #66472A",
"G  c #695637",
"H  c #714F32",
"J  c #486529",
"K  c #4A742D",
"L  c #776320",
"P  c #3B3B41",
"I  c #2A3F44",
"U  c #4B3944",
"Y  c #753642",
"T  c #484848",
"R  c #534D4F",
"E  c #6D584C",
"W  c #736E6F",
"Q  c #6F7251",
"!  c #983C38",
"~  c #8C362B",
"^  c #A3393A",
"/  c #823717",
"(  c #8A5D16",
")  c #8E5110",
"_  c #8E6C18",
"`  c #98463B",
"'  c #8E5029",
"]  c #A3473B",
"[  c #976825",
"{  c #976834",
"}  c #8D6E27",
"|  c #A96D35",
" . c #A17014",
".. c #9C3746",
"X. c #A6364A",
"o. c #AE3B53",
"O. c #904F4C",
"+. c #A74855",
"@. c #B74857",
"#. c #B65458",
"$. c #AC4F49",
"%. c #93714F",
"&. c #AE7148",
"*. c #BB5468",
"=. c #8D786D",
"-. c #BA6E69",
";. c #9E5367",
":. c #C7505C",
">. c #C97256",
",. c #C75765",
"<. c #D75768",
"1. c #D2546A",
"2. c #D96468",
"3. c #DB6574",
"4. c #D87678",
"5. c #CB6B6B",
"6. c #E86877",
"7. c #F26B78",
"8. c #EB727D",
"9. c #F26C74",
"0. c #E15D73",
"q. c #1D9714",
"w. c #259C1C",
"e. c #279919",
"r. c #319C1C",
"t. c #29A51C",
"y. c #39B71C",
"u. c #30AA1C",
"i. c #1E9522",
"p. c #269A24",
"a. c #36932D",
"s. c #2CA523",
"d. c #2BA626",
"f. c #36AA28",
"g. c #36B425",
"h. c #3BB525",
"j. c #3CBA25",
"k. c #35B42A",
"l. c #3CB52C",
"z. c #36BB2B",
"x. c #3CBA2B",
"c. c #36B924",
"v. c #38AA33",
"b. c #3CB432",
"n. c #3CBA32",
"m. c #3AB737",
"M. c #2DAB2D",
"N. c #1FA419",
"B. c #43BA1C",
"V. c #57953A",
"C. c #499133",
"Z. c #42BB25",
"A. c #42B62C",
"S. c #42BB2C",
"D. c #46B728",
"F. c #47A938",
"G. c #54AB3A",
"H. c #44B533",
"J. c #42BC32",
"K. c #4BB43B",
"L. c #43BB3A",
"P. c #49B637",
"I. c #55B639",
"U. c #4EB02A",
"Y. c #61B23F",
"T. c #3BC22A",
"R. c #3EC232",
"E. c #45C32C",
"W. c #4AC72A",
"Q. c #44C132",
"!. c #4BC534",
"~. c #4BCA37",
"^. c #52CD34",
"/. c #52CD3C",
"(. c #57C735",
"). c #55D235",
"_. c #58D43A",
"`. c #51CC2E",
"'. c #64D53A",
"]. c #558E45",
"[. c #5A9344",
"{. c #459143",
"}. c #649A4B",
"|. c #4BAB43",
" X c #49B842",
".X c #56B645",
"XX c #57AA4A",
"oX c #68B04F",
"OX c #57CA41",
"+X c #5AD644",
"@X c #49CA43",
"#X c #64CB45",
"$X c #6AD249",
"%X c #63E048",
"&X c #AA8530",
"*X c #8E8123",
"=X c #C39439",
"-X c #EEB43B",
";X c #D3A434",
":X c #B48E4F",
">X c #B28B71",
",X c #9C8E6C",
"<X c #C69948",
"1X c #C79C56",
"2X c #CC9053",
"3X c #D7A748",
"4X c #D5AA53",
"5X c #ECB545",
"6X c #F5BA49",
"7X c #E7AE57",
"8X c #E9B558",
"9X c #F5BB56",
"0X c #E7AD4B",
"qX c #D18E70",
"wX c #E78E7A",
"eX c #D9AB66",
"rX c #D3B06E",
"tX c #E8B665",
"yX c #F8BA67",
"uX c #EAB075",
"iX c #E0985D",
"pX c #F7C359",
"aX c #EFC158",
"sX c #F7C465",
"dX c #F4C777",
"fX c #EAC377",
"gX c #DEC15D",
"hX c #DC7483",
"jX c #ED7285",
"kX c #7B93AF",
"lX c #898A8E",
"zX c #B99B88",
"xX c #8B9AAF",
"cX c #AFB4B3",
"vX c #97AABA",
"bX c #D09C89",
"nX c #EF9587",
"mX c #D0AE93",
"MX c #FCB89B",
"NX c #EDAD8F",
"BX c #FCBCA6",
"VX c #F3A8A5",
"CX c #DEBFA6",
"ZX c #F2C38F",
"AX c #FDC5A3",
"SX c #FBC9A8",
"DX c #FCD2AD",
"FX c #FBCBB3",
"GX c #F9D4B8",
"HX c #EFC1AA",
"JX c #D5C081",
"KX c #8EA4C2",
"LX c #AAB9CA",
"PX c #AAC1DC",
"IX c #FCDBC4",
"UX c #CDDAEB",
/* pixels */
"b.h._.`.q.b.m.q.k.x.l.n.l.x.x.j.c.x.Z.S.P.b.J.l.l.H.A.D.h.x.j.Z.Z.h.y.j.n.m.A.A.l.x.x.j.z.z.x.x.n.n.x.h.J.l.j.Z.l.x.S.S.",
"l.S._.^.u.s.d.v.b.S.x.n.x.x.x.j.x.x.l.t.b.b.x.x.x.l.h.h.!.S.l.h.A.Z.h.j.J.l.J.h.S.h.j.j.z.x.x.x.x.l.Q.j.S.J.h.j.S.J.l.s.",
"k.J._._.S.t.w.L.n.x.g.x.n.n.x.x.h.L. Xi.M.n.x.j.S.S.h.h._./.P. XP.P..XK.l.J.z.T.j.Z.j.x.Q.l.x.x.x.x.+X!.h.S.j.S.S.l.s.e.",
"J.l.S.S.S.l.b.n.b.S.x.Q.l.l.Q._.S.r.p.v. Xk.q.g.j.y.~.+XJ.r.b V.V.b b b F.$X~.y.^.).y.E.+XS.x.j.g.e.x.x.h./.OXl.OXQ.l.b.",
"J.l.l.b.l.b.L.b.J.h.u.x.n.n.E.^.).h.e.K.v.t.w.l.E.E.T.J.P.b @ }.,X# : $ K #XD.E.W.^.`.`.(.A.x.x.k.s.d.s.l.!.!.f.!.S.l.J.",
"h.J.b.b.b.S.J.l.S.g.t.g.n.x.j.j._.E.e.H.r.r.F..X$XK. X XoXm ; D D =.>X,XJ v U.%Xj.j.'.`.h.h.S.x.L. Xp.e.J.l.d.w.l.x.x.x.",
"S.x.w.s.n././.x.x.x.h.S.x.x.x.j.S.Q.h.A.H.K.oXa.M n M M n = * o 2 G F =.G $ C.$X!.D.'.D.h.E.x.s.w.L.p.p.b.t.d.b.l.S.S.x.",
"S.b.p.d.k./._.y.E.Q.l.S.S.!.E.x.x.k.J.P.|.b m c - 7 * 7 * * 9 9 1 1 + 1 k $ V.#XA.S.(.D.S.g.x.k.s.m.d.s.b.s.f.b.J.x.h.x.",
"l.l.L.M.q.OX^.y._./.l.x.S.+X!.l.n.n.H.F.m % - 8 q t y y P y y y e r 9 o o - m |.L.g.x.x.h.S.x.l.b.L.b.l.b.J.g.x.S.x.x.S.",
"J.J.b.b.q.OX_._.^.S.l.x.j.Z.x.J.z.l..X{.@ w t y y y y q y t y t r r e y y * @ m |.L.x.n.!.Q.l.J.J.l.h.S.n.l.Q.E.OXJ.h.x.",
"u.f.J.l.s.!.^.^.~.j.n.x.j.j.x.l.S..Xm - w r r r y e y y 0 0 0 e r r y e e P * @ m |.P.f.@X@Xx.g.x.l.!.j.l.J.h.S./.Q.x.x.",
"t.t.l.l.J.l.h.y.h.x.J.x.j.Z.l.l.P.b = u r T u r y y q P u 0 y y r w t y e y t * @ M K.H.w.d.R.x.j.j._.E.l.S.h.S.x.l.l.x.",
"l.x.x.x.x.S.j.S.S.x.x.S._./.J.K.XXc = t T T T y t U P q w n T T y w t T T q w r - c a.v.e.s.x.j.).E.`._.Z.y./.j.x.t.t.k.",
"l.x.x.l.x.h.j.h.S.l.x.j._.!.x.F.{.= * T R T R e U R t   8 t T R q e T R R T w r w = m  Xp.k.J.h._.E.W._.^.!./.x.x.s.t.k.",
"S.h.x.~.+Xj.S.S.l.J./.Z.j.h.S.|.% - 7 t R T e e U T 9 k o 8 P T 3 q D T T R t t w - % |. Xx.h.S.Z.h.h.x./.+Xx.J.x.x.x.x.",
"h.J.h.S.E.~.~.l.n.x.S.j.u.b.J.|.= w u r y y y 8 q e 1 zXD O t y 3 q y e r T t y q * % [.P.c.J.A.S.g.t.k.!.Q.s.k.S.j.x.S.",
"x.j.D.h.S.~.~.x.x.x.R.t.e.H.H.|.= w r r 0 r 8 q P 0 X >Xl + 9 P 6 6 q y y r 8 q w * % XXP.h.S.A.J.k.e.l.k.l.s.l.S.g.J.l.",
"j.x.Z.Z.S.S.h.x.x.n.z.k.d.K.v.a.= w e u 0 8     o 1 >XCX>Xl + o o   o q 8 r 3 e w * c C.(.%XE.S.k.l.l.A.Q.n.J.l.x.S.H.P.",
"l.x.W.W.l.l.S.l.t.d.b.v.p.v.d.a.= 8 8 3 q + H O.H O.NXSXAX-.F O.H O.k     q 4 4 q * % XX/.).`.E.j.Q.S.x.g.x.x.l.t.x.f.F.",
"l.S.^.^.l.l.H.H.d.s.b.H.p.p.p.|.=   4 4 O k mXqXqXBXBXAXAXMXNXNXNXqXE k k   8 4 4 * % oX/.E._.y.j.j.Z.h.Q.x.J.k.N.k.t.f.",
"l.x.c.z.b.s.e.b.b.v.p.v.p.q.s.|.& 1 O O k bXIXH O.FXSXSXSXAXSXSXFXl H CX>Xi + 9 4   % |.P.h.S.x.S.h.A.A.J.l.J.g.z.R.x.j.",
"J.x.c.z.J.b.M.L.b.L.v.v.v.F..X}.2 ,XE l bXBXGXE %.IXMXAXDXAXAXHXGXk O.DXMXqXs W W   & [.oX.XG..XG..X#X#XS.l.!._.x.x.j.c.",
"b.h.E.T.y.S.Q.l.l.A.J.A. X|.m n > zXE F NXMXIXD G GXAXDXAXSXSXSXGXs O.GXMXNXf =.=.  2 J J n J J n b G.(._.y.)._.x.l.S.A.",
"l.S._.`.y.y.j.h.S.l.S.H.F.b $ : X bXE F NXAXFX,X>XDXDXSXAXDXDXDXGX%.>XFXMXnXf =.=.  2 : . . . . : $ b G.$XW.).^.h.A.A.S.",
"j.h._._.S.h.Z._.S.J.h.H.XXc N >Xs =.k F NXAXSXDXDXCXqXSXSXDXCXzXHXDXDXAXMXbXd E E o , :X1X<X=X=X3XB # v oXU.'.W.y.+X).y.",
"S.h.^._.Q.S.^.).J.k.x.I.v < eXuXs o o D bXBXMXAXDXbXX mXHXGXzXs HXSXAXAXMXbXk   9 1 > rXtX9X9X6X6X8XA $ S Y.D.W.)._.W.y.",
"v.f.S.^.S.!.'.Z.T.g.J.C.v C 8XtXs 8 8 4 k bXBXAXAXFXmXk 1 X F HXSXAXDXHX>Xs o u t 9 , JXfXaXpX6X5X9XeXB ; b I.y.+XQ.j.j.",
"v.w.t.~.Q.Z.!.h.c.x..Xb : 4XsX3X, t q 4 o k bXHXFXSXGXmXzXzXmXFXBXGXHX>Xk o 8 q P 9 , } [  . .=XpX-X9X4X. J I.j.~.z.c.j.",
"J.u.u.Q.S.h.A.S.S.P.C.v Z 7XyX:X. y q 3 o + G O.qXNXNXAXFXGXMXnXVX-.E T 3 6 3 q y 0 : L ) ) g ( pX-X6X3X> J I.S.l.n.x.x.",
"D.x.x.z.x.S.l.A.h..XK . <XsXeXA . q w 6 o O s i ~ 5.2XuXNXNXwX>.5.z j k 3 6 3 q P 9 2 rXtXtX| [ sX-X6X3X> J .Xl.l.J.x.x.",
"x.g.z.x.J.x.g.S.H.C.# } 8X8X:Xd 0 8 q 3 4 j #.5.$.` qXwXqXqXqX5.! #.5.O.O 4 4 q e 0 1 >XtXyX[ ( aX5X6X<X> J |.v.S.S.x.x.",
"x.x.x.x.l.n.n.H.C.v , :XsX4Xf R r   6 4 j ;.3.6.6.,.` NXBXSXnX^ :.2.8.-.O.O o 8 8 9 . A g 7X[ ( pX-X9X3X> J a.s.J.h.l.x.",
"g.S.h.A.J.l.t.v.[.$ } tX9X:X1 lX7 6 3 j +.3.jX8.7.6.5.$.,.,.$.2.0.9.7.8.5.O.5 4 8 9 1 mXB eX{ ( pX-X9X3X> n v.m.H.e.p.L.",
"g.x.J.!.l.l.p.F.J p =XaXtXa E xXI   o l 3.6.,.<.7.6.6.,.@.@.<.8.9.7.<.1.8.-.k   8 2 1 CXZ rX[ _ pX-X6X3X> n |.b.s.s.v.L.",
"x.j.+X+XZ.A.I.C.$ Z aX8X:Xk LXkXw   j ..jX6.X.1.8.9.6.jX1.0.jX6.6.8.:.o.jXhXY O o o s CXA eX[ ) pX5X6X3X> J .Xt.t.l.n.k.",
"c.j.T.j.^.I..Xb a <X9XaXB =.cXxXP o Y *.jX6.X.,.6.9.6.7.1.<.jX6.7.8.:.o.6.hX*.l o o O mXZ eX[ _ aX6X6X;X, S G.x.g.x.x.z.",
"S.j.j.j.^.I.}.< B tX5XpXV d F k O + +.jX6.,...,.8.9.9.7.1.<.7.7.9.7.:.X.1.6.hXY O 4 O mXL eX{ ( pX-XpX3XX J .XA.n.n.z.x.",
"k.J.x.g.S.G.v , 1XpX6X;X=X| | &.s Y *.jX3.:...,.8.6.9.7.<.<.7.6.9.9.:.o.1.jXjX+.k O 1 F g V a [ pX-X9X=X. S I.h.z.x.x.x.",
"L.b.M.k.x.I.v p tX6X-X-X6X9X9XtXf Y #.,.,.@.@.,.6.8.7.7.:.<.9.9.7.6.,.+.@.,.,.+.l + X 1X7X3X3X8X5XsX1Xp < m P.c.T.W.W.B.",
"b.m.s.d.z..Xv p 7X6X6X6X6X6X6X7Xi O.5.4.5...X.@.:.6.0.3.:.:.2.<.<.@.@.+.X.4.4.5.H s &.fXsXpXsXaXsX:Xp : K .Xh.T.T.~.W.B.",
"k.b.t.n.R.K.v p eX8X7X8X7X8X8XeX' >XMXSXVX! ^ ^ o.@.*.*...+.#.@.*.X...! $.MXBXNX' p &.[ [ _ [ [ | a : K Y.D.j.Q.+Xg.x.D.",
"k.k.t.k.t.K.v > A V ) V V V V V A &.uXNX-.z @.3.,.o.X.o.X.....X.X.*.,...~ 4.MXiX&.} ( ( ( [ ( ( ( } v }.U.j.j.x.J.l.J.l.",
"H.v.M.d.w.F.v & < > B [ [ [ { { { { &.&.z @.<.7.<.:.0.6.6.6.6.3.:.0.0.,.$.x >.eXeXeXeXeXrXeXtX7X8X7Xv V.H.h.A.h.H.H.L.m.",
"r.f.m.d.d.P.G.[.}.S _ eXL d F F d { ' | x 5.6.7.<.:.7.7.7.6.7.7.0.6.<.:.$.x ) uX:Xa A d F B a  .9X0Xv V.F.e.P.H.P.v.n.m.",
"A.H.J.k.x.S.P.G.|.b } ZXG W lXW G H A :X&.~ 2.2.<.<.7.7.7.7.7.jXjXjX0.@.$.h p ZX%.F lXlXW lXE L dXgXS }.oXr.r.J.f.k.k.z.",
"h.A.l.S.j.y.h.H.a.b _ fXD cXPXvX=.H A eXuX) $.@.:.2.<.<.2.2.<.<.<.3.:.] &.h a ZX%.Q UXPXxXPXW G :X&X< v K a.p.k.e.H.n.z.",
"R.z.l.S.j.x.J.b..Xb _ dXF lXxXxXE E B 1X9XyX] ~ ` ] ! ] ` ! ! ] ^ ] ~ &.ZXg a uX%.E LXKXkXKXW . B ( _ L $ n F.q.f.H.b.m.",
"z.x.+X/.x.x.k.w. Xb _ dXF lXKXxXW H Z <X6XsX| ' wXnXnX4.` ` wXnXnXqX' { fXV p ZX:XG cXvXlXxXW . :XdXsXeX> J a.s.P.f.w.n.",
"j.S./.!.j.x.k.s.K.b } ZXG cXPXvX=.p a 3XaXpX| ' nXBXMXwX` ~ wXBXBXwX' [ dXB p Z g a H G F F d X &X8X8X1X> J |.s.l.k.d.z.",
"J.h.j.j.j.x.x.H. Xb _ ZXF ,XcXW O { eX0X5X6XyX&.>.wXwX#.$.` >.wXwX&./ [ dX3X<X<X1X1X1X<X1X1X1X1X0X9X9X<X> J .Xx.J.J.z.z.",
"p.f.n.x.x.c.x.n.K.b *X| p B F f X &.sX5X6X9XiX>.$.,.#.! $.! ! #.#.$.~ | yX6X9XpXpX9X9X9X9XpX9X9X6X5X9X<X> J .XJ.g.l.m.z.",
"p.v.n.l.W.T.x.l..Xb } 7X1X1X1X{ X &.yX6X5X8X' $.4.4.4.` $.! ..hX4.4.$.| yX5X5X6X6X5X6X6X6X6X9X6X6X6X9X3XX S I.j.!.n.m.m.",
"m.b.l.S.).W.j.H.oXS } dXeXtXtX| X &.tX8X8XtX| ` +.+.+.z O.~ z +.+.+.! &.yX8X8X0X0X7X7X0X8X0X7XtX7X7XtX:X> S I.j.+X!.x.n.",
"n.l.A.Z.W.).D.U.C.v N Z C C Z B > N Z C C A H F z z z f d f i l l z d h Z C C ( C C Z Z C C Z C Z C Z A ; b #X_.!.S.l.n.",
"S.j.D.D.B.'.(.U.c % < < ; ; ; # < # ; ; # ; < ; 2 : 2 2 # ; 2 : : < ; ; < ; # ; ; ; # ; # # ; # & # ; & & b OX+XS.h.l.L.",
"h.S.$X#XB.).(.$XG.[.V.V.V.[.m ].].[.V.[.[.].[.V.K }.].].K K }.[.[.].].}.oXV.oXoXV.}.C.C.].C.K ].].[.[.V.].|.P.h.S.t.t.l.",
"x.x.f.A.Z._.^._.P.I.I.P.I.P.F.|..XK.G.C.C..X|.F.a.C.|.v.a.F.G.I.P.P.K.I.(.(.#X#XI.G.G.F.F.P.F.K.K.K.I.I.G.f.J.x.A.A.h.x.",
"z.k.w.h.D._.`.W.A.n.x.u.c.x.b.m.l.h.A.e.e.v.v.L.e.w.v.i.d.v.H.l.Z.E.j.u.E.).).y.D.S.H.b.S.x.l.x.x.x.Z.(.I.r.S.g.l.H.l.S.",
"k.n.b.b.h.j.j.x.l.n.k.N.g.j.n.m.x.E.^.h.f.p.p.b.f.p.M.i.n.n.S.l.h.~.!.x.j.E.E.j.h.A.v.b.S.j.x.x.z.c.h.^.+Xl.n.w.M.m.H.A.",
"k.n.L.n.x.j.j.x.n.m.m.d.g.T.m.n.j.E.).Z.L.p.p.m.b.d.M.M.b.x.x.x.j.!.Q.S.S.h.h.S.A.A.w.s.S.j.x.j.z.c.x.S.!.S.n.d.M.m.L.H."
};
