/* XPM */
static char *_63131a28877420f8e7eea464151062e[] = {
/* columns rows colors chars-per-pixel */
"60 60 250 2 ",
"   c #19160A",
".  c #191817",
"X  c #0C100B",
"o  c #26181A",
"O  c #361A1A",
"+  c #2D110E",
"@  c #082C07",
"#  c #083508",
"$  c #13340C",
"%  c #0B2614",
"&  c #17271A",
"*  c #0C3516",
"=  c #153416",
"-  c #192B06",
";  c #242618",
":  c #362517",
">  c #242C02",
",  c #1B1C24",
"<  c #251C24",
"1  c #3A1B21",
"2  c #1C2628",
"3  c #272728",
"4  c #32292B",
"5  c #2A342A",
"6  c #35352B",
"7  c #2B2D32",
"8  c #262A35",
"9  c #382E37",
"0  c #2C3334",
"q  c #2A3735",
"w  c #333535",
"e  c #35353A",
"r  c #3A353B",
"t  c #363A3A",
"y  c #3B3B3C",
"u  c #363934",
"i  c #541917",
"p  c #512E12",
"a  c #441724",
"s  c #4C2926",
"d  c #5A362C",
"f  c #463B3A",
"g  c #5A3B36",
"h  c #532C2B",
"j  c #6B342C",
"k  c #77231D",
"l  c #1A5717",
"z  c #164915",
"x  c #1E6918",
"c  c #2A492B",
"v  c #34762B",
"b  c #2F6D2C",
"n  c #2D5811",
"m  c #4F4D19",
"M  c #44423E",
"N  c #5A4430",
"B  c #6B4637",
"V  c #754D33",
"C  c #57702B",
"Z  c #687933",
"A  c #6C6534",
"S  c #3A3942",
"D  c #503844",
"F  c #743743",
"G  c #474847",
"H  c #574753",
"J  c #524E4C",
"K  c #775546",
"L  c #6F5049",
"P  c #7D6646",
"I  c #74675F",
"U  c #736960",
"Y  c #9B3938",
"T  c #883932",
"R  c #A4393C",
"E  c #844935",
"W  c #8E4A38",
"Q  c #A9423D",
"!  c #9C3542",
"~  c #A53849",
"^  c #B13D53",
"/  c #854848",
"(  c #8F524D",
")  c #AA4652",
"_  c #B74857",
"`  c #BA555B",
"'  c #AC4C4D",
"]  c #916F50",
"[  c #AF6D52",
"{  c #B85764",
"}  c #AE5164",
"|  c #907669",
" . c #B77868",
".. c #C54B5B",
"X. c #C7545C",
"o. c #D3515E",
"O. c #C95866",
"+. c #D95A68",
"@. c #D95E74",
"#. c #CA4C62",
"$. c #E35D73",
"%. c #C86467",
"&. c #D5656A",
"*. c #C97766",
"=. c #DA6273",
"-. c #D87777",
";. c #CC7075",
":. c #EC6C7B",
">. c #E66976",
",. c #F26B7B",
"<. c #F46678",
"1. c #EB737C",
"2. c #F06F77",
"3. c #D07C5A",
"4. c #1D9619",
"5. c #1C9612",
"6. c #239B14",
"7. c #23961C",
"8. c #249B1C",
"9. c #279A1A",
"0. c #26A11B",
"q. c #2BA41C",
"w. c #2AA618",
"e. c #33AC1D",
"r. c #3AB51E",
"t. c #3CB91E",
"y. c #36B51D",
"u. c #2EB41F",
"i. c #2A9C23",
"p. c #2B9D29",
"a. c #249923",
"s. c #38932F",
"d. c #2CA323",
"f. c #2EA923",
"g. c #2DA42A",
"h. c #29A627",
"j. c #33AC25",
"k. c #34AB2B",
"l. c #34A728",
"z. c #36B425",
"x. c #3BB525",
"c. c #3DBA25",
"v. c #36B22B",
"b. c #3BB52B",
"n. c #3DB92B",
"m. c #36BA27",
"M. c #35AC32",
"N. c #39AC35",
"B. c #3DB533",
"V. c #3EB931",
"C. c #3CB43A",
"Z. c #39B635",
"A. c #2EA235",
"S. c #41BA1C",
"D. c #489B36",
"F. c #589734",
"G. c #578B34",
"H. c #69903A",
"J. c #41BC25",
"K. c #42B52B",
"L. c #41BC2C",
"P. c #49B82A",
"I. c #4BA43B",
"U. c #47A936",
"Y. c #55A83B",
"T. c #43B533",
"R. c #42BB32",
"E. c #44B53B",
"W. c #43BB3A",
"Q. c #4BB639",
"!. c #54B53A",
"~. c #51B42B",
"^. c #63AA36",
"/. c #3CC12A",
"(. c #3FC231",
"). c #45C22C",
"_. c #4AC32D",
"`. c #49C528",
"'. c #55CA2C",
"]. c #57D12F",
"[. c #45C232",
"{. c #4AC434",
"}. c #4DC934",
"|. c #4CC539",
" X c #4BCA38",
".X c #52CD34",
"XX c #53CD3B",
"oX c #57C837",
"OX c #56D23B",
"+X c #5AD43C",
"@X c #59D637",
"#X c #4FD035",
"$X c #62D93D",
"%X c #6DCC3E",
"&X c #4A9946",
"*X c #4F914A",
"=X c #778546",
"-X c #6A9444",
";X c #4BA744",
":X c #57AB46",
">X c #4AB744",
",X c #57B546",
"<X c #5DB253",
"1X c #69B14C",
"2X c #69B060",
"3X c #57CC42",
"4X c #5AD541",
"5X c #5DD944",
"6X c #59D444",
"7X c #4AC141",
"8X c #65DB47",
"9X c #6BC64D",
"0X c #5FE149",
"qX c #87994B",
"wX c #8F8D4F",
"eX c #8DA853",
"rX c #978374",
"tX c #B48A70",
"yX c #A4854F",
"uX c #D88B6D",
"iX c #CA8978",
"pX c #CA9270",
"aX c #E58779",
"sX c #D89D70",
"dX c #DB6F83",
"fX c #EE6B81",
"gX c #F56C84",
"hX c #E87587",
"jX c #B89986",
"kX c #B89E91",
"lX c #CE9786",
"zX c #EA9983",
"xX c #F1968A",
"cX c #D2AB92",
"vX c #E7A788",
"bX c #E8AD92",
"nX c #F9B798",
"mX c #F1AF94",
"MX c #FCBCA5",
"NX c #FFAFA4",
"BX c #F6C39C",
"VX c #EBC3A6",
"CX c #FDC4A4",
"ZX c #FDCBAC",
"AX c #F9C7A8",
"SX c #FCCBB4",
"DX c #FBD4B5",
"FX c #F3CAAF",
"GX c #FBD9C3",
"HX c #FFE2C6",
/* pixels */
"b.x.@X].5.B.C.4.v.n.b.V.b.n.n.n.V.V.c.c.c.n.R.n.R.n.c.c.z.n.L.x.L.v.V.V.C.B.T.L.n.m.n.n.B.B.n.n.L.n.n.c.n.b.J.c.L.n.B.R.",
"b.L.@X].e.d.g.M.B.L.n.V.n.n.n.c.b.n.b.e.n.V.b.n.b.L.x.x.[.L.x.L.n.L.c.z.B.T.K.n.c.z.c.n.b.V.n.n.n.b.[.c.n.L.n.c.n.L.b.g.",
"j.L.OXOXL.0.8.W.V.n.z.n.n.n.c.c.x.R.C.4.g.W.B.R.L.K.K.L.+XXXn.n.x.c.x.L.c.J.J.c.c.J.x.L.L.c.n.n.n.c.5X}.x.c.n.n.L.n.l.8.",
"R.x.L.L.L.b.B.V.B.L.n.[.b.b.).OXL.0.a.N.>XM.6.v.n.z.|.XX_.J.x.n.c.c.L.XX`.@X}.y..XOXK.{.6Xc.n.b.z.6.V.V.c.XX3Xb.3X{.B.B.",
"L.n.b.b.x.b.W.b.R.x.e.n.V.V.)..XOXb.7.>XM.d.9.b.|.z.{. Xz.y.c.c.z.n.|.3XJ.#X{.c.|.XXoXoXoXK.J.n.j.d.g.g.n.|.7Xk.|.n.b.R.",
"x.R.B.B.b.L.L.b.L.j.w.z.V.n.c.c.6XW.6.T.9.i.E.>X9X>X>X>X,X,XQ.Q.,X!.;XY.E.b.c.0XL.K.8XoXx.x.J.x.B.>Xa.a.R.n.g.8.n.c.n.b.",
"L.n.8.g.V.XXXXc.n.n.x.L.n.n.n.c.n.[.x.L.T.Q.<Xv z c c c c c z l l l z v <Xs.b.5X}.J.4X_.x.R.n.q.8.E.p.7.n.q.d.B.n.J.L.n.",
"L.n.8.g.v.XXOXy.).[.n.n.L.{.).c.n.b.L.K.U.x b z % 2 3 3 3 3 & & = = @ = b l D.6Xx.).{.n.R.v.v.v.g.E.g.d.R.q.g.V.n.c.n.n.",
"n.b.W.k.5.6X.Xt.+XXXn.n.c.5X|.x.n.V.T.Y.b # % & 5 u 6 u y e t w t t 7 & & @ v I.P.c.n.V.b.V.v.Z.B.W.B.b.B.R.v.n.L.c.n.n.",
"R.R.B.B.5.XXOX+X}.n.n.L.c.J.n.L.b.T.:Xv @ q t S t u 6 4 w r e y S S e e r & @ b Y.K.B.W.{.R.n.V.R.b.z.L.n.b.[.[.6XL.v.n.",
"f.j.R.b.f.|.}..X}.c.n.n.c.c.n.T.E.<Xb @ u e e S r e r u w u 0 0 w e y e e y . @ b :X!.j.3XXXz.n.n.n.{.c.n.L.x.J.XX[.n.n.",
"0.0.b.b.R.n.r.t.x.n.n.x.c.J.x.T.:Xl z 5 u H 9 9 r e w y 6 6 t w t 7 w y w r r & @ x ;XT.9.q.L.c.c.c.+X).x.L.x.J.c.b.b.V.",
"n.R.n.n.n.).c.J.J.n.x.J.OXXXn.Q.:Xz = G D H H D y G e 3 4 y G G e e y M M 4 r w & z D.U.7.f.R.c.OX`.].@XJ.r.XXc.n.w.0.v.",
"n.L.n.n.J.c.c.x.n.b.c.x.OX|.b.U.*X= & y H H H r M J u . 3 y G J 7 e G J G G w y 3 * b U.g.v.n.c.+X`.`.OX}._.XXn.L.e.f.v.",
"L.z.n.}.4Xc.J.n.z.R.XXJ.c.n.L.I.# % 3 M G G w 0 y G : f 3 3 y G 3 3 c G G J r r 0 X # ;X>Xn.K.L.J.x.b.n.XX6XV.R.c.c.n.n.",
"b.[.x.c.`..X Xx.n.n.J.x.w.R.W.I.* 0 t 6 u w u 2 3 6 : kXJ o r w , 7 t q q G S e 7 & # &XE.x.K.K.L.z.q.v.{.).d.v.L.c.n.n.",
"n.n.c.x.c..X}.c.L.b.n.j.9.T.E.&X* 0 w u w y 3 0 t 6 + tXg + 4 r 3 , 0 u w w 7 7 0 % # &XT.).L.x.n.j.6.b.n.b.j.b.R.z.R.b.",
"n.n.c.c.J.J.x.c.n.W.b.k.i.N.N.s.* 0 w 7 w 3     o : rXbXtXd   o o X . 7 3 y < 7 7 % $ D.!.@XJ.L.n.n.n.V.b.V.R.b.b.R.V.n.",
"b.b.|.|.b.b.J.n.d.g.T.B.i.N.p.s.= 8 3 , 3   B ( V ] mXAXCXtXV K V ] f X . 4 < 3 3 % # <X3X@X.XJ.n.v.n.n.n.n.n.n.w.n.f.v.",
"b.n.XXXXV.b.n.V.p.p.B.B.a.p.7.D.= . < o O d cXiXiXMXMXCXCXnXbXbXbXiXL f g + < . . & @ 2X3X`.4Xn.n.n.n.n.L.L.x.n.w.b.w.j.",
"b.n.n.n.V.q.6.b.C.C.d.M.i.7.l.D.- : o + h lXGXB ( SXZXZXZXCXZXZXSXd V cXtXi o 3 3   # &XT.c.n.b.n.n.L.L.x.x.x.x.n.R.b.n.",
"L.L.n.x.R.b.j.R.B.C.k.B.k.k.R.Y.> rXL g lXMXDXL P HXMXCXZXAXAXMXDXd ] DXmXiXs I U   $ &XQ.(.v.[.R.n. X5XJ.c.XXXXJ.c.n.x.",
"x.x.).L.x.L.[.b.V.B.W.V.R.R.n.I.> jXL g mXCXHXN A DXnXZXCXAXAXZXDXp P DXnXvXp | rX  @ *XE.z.V.V.n.x.L.6XXXJ.XX+Xc.c.J.n.",
"J.L.OX.Xc.x.x.c.n.n.b.b.R.x.L.D.> lXL d bXCXDXtXtXDXDXZXCXZXZXDXFX| tXZXnXzXp | |   $ *XQ.c.n.n.n.R.x.J.5X_..X.Xr.J.c.c.",
"K.x.OXOXJ.c.`.+XJ.L.J.x.R.n.L.,X- | g B vXBXCXZXDXbXpXAXZXZXVXjXVXDXDXAXMXzXp L I ; # &XT.c.c.c.R.6.n.n.XXL.5X}.t.4XXXr.",
"W.x.}.4X[.J.].].[.z.x.c.n.z.{.9X$ o   N lXnXZXCXZXcX+ cXFXDXjXp VXZXCXCXNXlXh   3 5 # &XQ.t.J.L.n.j.j.j.XX[.).L.OX+X{.c.",
"l.j.L.XXL.{.+XJ.n.n.J.z.0.v.3X<X$ 7 3 o d lXMXCXAXFXcXd : : B VXFXBXZXMXtXs o 7 e 5 @ &XK.`.8Xx.b.V.q.q.R.n.x.).5X{.c.c.",
"k.6.q.|.[.n.{.x.n.n.L.b.q.f.|.I.@ w 8 , 1 d lXZXZXAXDXcXjXjXcXSXAXDXAX .s o 2 8 S 5 # &XK.`.}.n.b.R.v.b.n.x.n.L.}.c.x.J.",
"W.l.j.R.R.x.n.n.n.b.b.R.b.d.b.I.$ 3 8 , < o L ( iXmXvXCXSXDXnXvXmX ./ g   & . 7 w 5 # &XQ.c.v.W.V.V.V.n.L.n.L.n.x.n.c.n.",
"R.V.R.b.n.L.n.n.n.R.R.b.B.b.R.I.$ 0 8 8 < O s i T *.uXvXmXmXaX3.*.k i s   & . 7 f 5 @ &XQ.n.V.Z.v.V.V.b.L.n.n.R.b.L.L.n.",
"n.x.c.n.V.n.z.n.v.v.V.n.R.b.n.I.@ q 2 , < a { &.' ' uXuXuXuXuX-.Y ` ;.( O 3 < 7 9 5 @ &XQ.b.k.d.f.b.V.n.R.n.e.z.R.L.n.n.",
"n.n.c.c.n.V.R.n.d.d.V.R.B.B.L.U.$ . 2 < a } =.>.>.O.Q nXMXMXxXY X.=.hXO./ O o < 4 5 # *XU.V.d.d.R.n.n.b.b.V.8.0.R.b.b.L.",
"b.n.x.c.L.v.6.k.B.d.k.E.8.i.T.I.$ & . s ( dXgX,.:.>.&.' %.O.' &.>.,.fXhX%./ 4 , 3 5 $ *X!.K.b.n.n.n.n.b.d.9.d.B.B.7.0.L.",
"v.L.[.L.L.b.d.d.B.l.g.M.i.M.T.D.* ,   d ;.:.#.$.2.>.>.X._ ..+.1.<.,.+.O.1.%.s . 3 3 $ *XQ.c.[.[.c.n.L.b.k.d.B.B.d.d.z.n.",
"n.n.6X6XL.n.W.g.k.l.d.d.d.B.T.I.= < 1 ! hX:.^ #.1.2.>.1.o.+.2.>.2.2._ ) 1.-.F O < & $ :XL.t..X+XL.x.n.V.R.B.W.d.0.b.R.b.",
"n.n.J.[.XX|.n.b.b.b.b.b.B.T.{.<X& o F %.hX=.~ O.:.,.>.,.o.+.,.<.2.2.` ) >.hX{ j o & @ <X_.@XoXP.J.L.n.b.b.b.R.b.z.L.L.b.",
"c.c.z.x.3X[.x.L.L.L.R.L.n.n.R.<X= O ( 1.&.X.! O.gXgX<.<.o.+.<.<.<.,.O.~ O.>.dXF o & # <XoX$X_.e.x.n.V.b.|.n.V.R.n.c.n.n.",
"c.c.L.R.n.x.L.L.n.x.L.x.c.J.n.D.; g { 1.>.O.! O.gX<.<.,.+.+.,.<.<.,.#.~ #.>.hX} g ; # <XoX.Xx.L.n.n.R.L.8X[.V.z.c.c.c.n.",
"c.L.f.f.R.L.z.c.n.[.}.J.}.XXR.I.; L } O.X.) ) O.>.gX,.:.#.+.1.:.gX$.#.) _ O.O.) F   @ <XT.[.6.f.R.n.n.n.|.c.n.J.J._. XL.",
"n.n.0.f.B.R.n.J.x.}.OX`..X}.n.I.> K  .zX&.~ _ ^ ..>.+.&...O.=.+.@..._ ) ~ -.-.*.B - x ,XR.z.v.v.V.z.e.n.z.n.n.c.)..X}.c.",
"z.b.4.C.B.B.n.n.n.J.c.+X`.t.L.U.n rXmXSXNXR ~ ~ _ ` _ _ ~ ^ { _ { ~ R R ' NXZXvXP n ,Xb.n.n.V.V.V.j.5.z.L.L.x.}.5Xr.c.c.",
"v.v.h.M.g.b.n.n.n.c.J._.t.J.n.U.G.qXcXmX .k _ >...~ ! ~ ~ ~ ~ ~ ! ` O.~ k iXnXsXqXY.T.z.n.[.v.B.V.b.b.n.R.n.J.J.L.x.c.t.",
"k.k.k.g.8.b.V.L.n.n.x.J.c.c.n.T.D.G.eX] k ` >.>.+...>.=.@.@.$.$...=.@.{ ) j yXeX^.~.P.c.z.n.T.T.V.n.R.R.b.j.L.x.n.n.c.c.",
"k.k.B.f.d.B.V.R.V.R.b.b.n.n.n.b.R.s.H.Z p [ >.gX+...:.:.fXfX,.,.$.:.+.{ } p H.eX~.J.8XoXb.V.T.K.n.b.n.R.k.d.b.n.R.v.n.c.",
"B.B.R.b.V.V.b.B.q.j.R.b.b.[.n.n.n.R.~.F.C V %.+.+.+.2.:.:.:.:.>.,.:.=.` V C F.3X}.L._.P.n.n.6.l.n.n.R.V.B.a.l.T.d.k.b.n.",
"V.V.n.n.L.n.R.R.q.0.k.W.B.k.b.R.n.c.x.~.H.m W ` X.&.&.&.%.&.&.+.+.&.` E m -X!.R. XJ.x.n.[.e.6.T.R.b.b.d.B.d.g.k.7.B.R.V.",
"L.n.L.L.x.n.R.b.W.k.8.C.p.4.b.L.K.L.c.K.:X-XA V W R Y W E E Y Q R W V Z ^.~.x.n.L.v.B.n./.w.j.R.n.b.l.8.k.N.p.p.g.B.C.V.",
"L.L.+XOXx.L.v.6.B.d.8.M.a.M.W.v.K.L.J.).b.:XG.] iXxXzXtXyXyXpXzXxXpXwX^.~.@X).n.B.R.V.n.z.c.b.b.x.L.b.b.d.C.a.p.E.l.8.Z.",
"b.V.3X}.c.n.z.q.V.k.8.d.g.V.B.b.[._.J.+XR.Q.F.qXvXMXMXpXwXwXsXnXMXsXqX^.%X].L.b.l.k.V.n.(.n.z.L.J.x.R.V.l.b.j.j.n.j.l.v.",
"R.v.b.n.n.n.L.L.R.v.d.b.B.V.V.n.5X.XS.$X_.~.1XwX[ aXaX[ qX=X[ aXaX[ qX1X%XP.v.v.4.k.n.x.z.n.L.x.c.n.n.R.b.n.L.c.R.L.n.b.",
"0.k.R.n.L.x.x.n.L.n.v.R.n.b.n.c.r.$X'.]._.9XqX] ' X.` E =XZ E X.` ' ] qX9XK.k.a.v.b.b.R.n.z.L.}.6XL.z.b.V.n.n.n.z.x.n.n.",
"8.k.V.b.{.J.c.c.x.n.R.n.n.n.n.c.c.`.'.].].9XC ] -.-.;.K -XZ E -.;.iX] Z 1Xx.d.h.R.n.V.v.z.n.z.|.}.c.XXn.n.n.z.J.{.L.n.V.",
"b.n.n.J..X_.c.J.n.L.n.n.R.n.L.n.c.r.$X`.oX1XC V E E V m G.C p ( E V N H.~.c.Z.V.n.n.V.d.8.Z.B.R.x.).8X[.n.L.c.).5X{.n.n.",
"L.n.c.J._..XJ.r.XX6Xb.R.b.q.b.R.n.x.P.J.J.~.-X=X=X=X=XC Y.F.C =X=X=XH.F.T.).z.(.L.b.Z.Z.h.i.C.k.z.).{.L.n.n.}.6X}.J.n.n.",
"n.x.J.t.S.+X].`.OX6XL.W.k.0.d.V.z.(.z.[.c.x.!.Y.Y.Y.:X,XB.Q.!.Y.:XY.Y.T.P.t././.r.n.V.C.C.a.M.8.w.x.x.).n.z.|.5XL.z.b.R.",
"n.R.5X+Xt..X_.5XL.x.n.B.B.R.6.f.n.m.n.V.n.n.K.j.q.V.V.B.4.h.n.L.K.b.n. X+Xt.]..Xc.L.l.i.E.p.d.j.x.).c.x.n.L.n.n.L.w.w.n.",
"V.V.e.x.c.OX.XOXx.n.R.b.W.b.j.b.V.B.W.d.g.W.V.k.7.g.Z.k.4.A.V.n.n.n./.(.P.'.].`.c.c.b.B.T.T.j.n.L.n.x.L.n.w.R.n.n.b.z.n.",
"W.b.6.e.n.OX}._.L.L.L.j.b.L.n.L.L.b.B.8.a.M.v.B.i.p.k.4.A.N.V.n.c.).m.u.L.+XOXr.c.J.T.T.T.K.x.J.n.n.L. X|.q.b.k.b.V.b.n.",
"B.R.b.n.x.L.x.n.n.n.v.0.j.B.n.n.x.).6Xn.g.a.8.B.k.p.g.4.E.B.n.c.c.}.{.n.L.[.{.L.c.L.M.T.T.n.c.c.L.x.x.|.3Xb.B.8.l.T.V.n.",
"v.V.W.L.L.c.x.n.b.R.b.q.v.R.V.n.L.L..XL.C.a.7.B.B.i.g.k.B.T.n.x.c.{.R.n.n.x.b.L.c.n.i.l.b.c.z.z.n.n.n.L.|.n.R.d.d.B.V.n."
};
