/* XPM */
static char *ca5cbaeae0c0490fa486b82e3060ab0c[] = {
/* columns rows colors chars-per-pixel */
"60 60 231 2 ",
"   c #00090E",
".  c #001219",
"X  c #000619",
"o  c #000C20",
"O  c #00142C",
"+  c #001826",
"@  c #001F37",
"#  c #00282D",
"$  c #022433",
"%  c #002A36",
"&  c #00223A",
"*  c #002A3A",
"=  c #082535",
"-  c #152634",
";  c #00313E",
":  c #12343D",
">  c #002C47",
",  c #003D46",
"<  c #00354C",
"1  c #003C4D",
"2  c #003643",
"3  c #003C52",
"4  c #003654",
"5  c #1E3C47",
"6  c #20364B",
"7  c #004052",
"8  c #004954",
"9  c #004E5C",
"0  c #00455C",
"q  c #21474E",
"w  c #2A4A56",
"e  c #014B62",
"r  c #054F69",
"t  c #004363",
"y  c #005465",
"u  c #005A65",
"i  c #00556D",
"p  c #005B6D",
"a  c #085166",
"s  c #19556B",
"d  c #005771",
"f  c #005D73",
"g  c #035C79",
"h  c #19526D",
"j  c #314D62",
"k  c #245B79",
"l  c #1F6268",
"z  c #026075",
"x  c #00637B",
"c  c #086C7B",
"v  c #136478",
"b  c #06757C",
"n  c #396878",
"m  c #24717B",
"M  c #43677A",
"N  c #4F6E79",
"B  c #016C82",
"V  c #027E8E",
"C  c #167485",
"Z  c #147689",
"A  c #1A7788",
"S  c #0C7C92",
"D  c #017B90",
"F  c #107390",
"G  c #236480",
"H  c #227390",
"J  c #237283",
"K  c #507689",
"L  c #627E93",
"P  c #02828D",
"I  c #00859A",
"U  c #07879A",
"Y  c #188297",
"T  c #3C8E9C",
"R  c #3F9D9D",
"E  c #0F8EA1",
"W  c #1689A0",
"Q  c #0795AA",
"!  c #1098B0",
"~  c #1297A6",
"^  c #3A99AE",
"/  c #319FB8",
"(  c #238DA3",
")  c #18A7B8",
"_  c #36A1AC",
"`  c #35A6AC",
"'  c #24ADBF",
"]  c #29AABF",
"[  c #25A7B7",
"{  c #30AEBD",
"}  c #23ACB2",
"|  c #578492",
" . c #5C8D91",
".. c #569396",
"X. c #778D92",
"o. c #78949C",
"O. c #658E92",
"+. c #479BA6",
"@. c #519BA4",
"#. c #4AA9AC",
"$. c #4FACBD",
"%. c #4CADB6",
"&. c #5AA8B3",
"*. c #58B4B9",
"=. c #69B1B9",
"-. c #76ACB8",
";. c #14AEC3",
":. c #18ADCB",
">. c #02B4C4",
",. c #02BAC6",
"<. c #02B5CC",
"1. c #0BB5CB",
"2. c #01BCCD",
"3. c #0CBACB",
"4. c #09B5C5",
"5. c #13B4C5",
"6. c #1BB3C4",
"7. c #14B6CB",
"8. c #1AB3CA",
"9. c #12BCCC",
"0. c #1DBBCC",
"q. c #1BBCC5",
"w. c #02B5D3",
"e. c #0BB6D2",
"r. c #00BCD5",
"t. c #0ABBD4",
"y. c #03B6D9",
"u. c #02BCDA",
"i. c #0ABCDC",
"p. c #11B5D1",
"a. c #13BBD3",
"s. c #1CBCD4",
"d. c #19B4D0",
"f. c #0AAFCB",
"g. c #2CAEC3",
"h. c #27A9C3",
"j. c #30AFC0",
"k. c #24B4C4",
"l. c #2BB3C5",
"z. c #24B5CB",
"x. c #2CBACC",
"c. c #28B8C8",
"v. c #34B3C9",
"b. c #37B7C6",
"n. c #23BDD4",
"m. c #2BBDD3",
"M. c #27B7D3",
"N. c #31BEDC",
"B. c #04BCE2",
"V. c #0ABDE0",
"C. c #58B2C6",
"Z. c #57B6C9",
"A. c #48B7C0",
"S. c #61AEC7",
"D. c #6DBCC1",
"F. c #76BDC8",
"G. c #01C1CD",
"H. c #0CC0CE",
"J. c #16C1CC",
"K. c #01C1D4",
"L. c #02C2DB",
"P. c #0BC3DB",
"I. c #07C5D3",
"U. c #14C3D4",
"Y. c #19C6D9",
"T. c #28C1CB",
"R. c #26C4D8",
"E. c #38C1D3",
"W. c #05C2E2",
"Q. c #54C2D6",
"!. c #69C4C4",
"~. c #77C7C5",
"^. c #69CFD3",
"/. c #7EE9F1",
"(. c #86999D",
"). c #8F90A2",
"_. c #9799A8",
"`. c #989FB2",
"'. c #99A6A7",
"]. c #97A7B9",
"[. c #8CB3C5",
"{. c #BDBFCC",
"}. c #87C2C0",
"|. c #90CCD4",
" X c #95D3D7",
".X c #96C8D0",
"XX c #BCD2D3",
"oX c #B0D1D4",
"OX c #8EDBEB",
"+X c #A3DEE2",
"@X c #88E6EF",
"#X c #A9E8EB",
"$X c #BBEBEA",
"%X c #BAE6EB",
"&X c #A5EBF6",
"*X c #ADFFFF",
"=X c #A4F8FE",
"-X c #BDFFFF",
";X c #B2EDF5",
":X c #CEDFE6",
">X c #D6DCE5",
",X c #D2DEF4",
"<X c #D9E7ED",
"1X c #C3EEF8",
"2X c #C4FEFF",
"3X c #CDFFFE",
"4X c #C9F4FA",
"5X c #D4FEFE",
"6X c #DBFEFE",
"7X c #D5F5F8",
"8X c #EFF1EE",
"9X c #FDFEED",
"0X c #F3FAEC",
"qX c #ECF2F5",
"wX c #EEFDF6",
"eX c #E4FFFE",
"rX c #ECFFFE",
"tX c #E4F5FA",
"yX c #F5FDF5",
"uX c #FFFFF5",
"iX c #FCFDF5",
"pX c #F6F7FC",
"aX c #FCF6FD",
"sX c #F6FFFE",
"dX c #F4FEFD",
"fX c #FEFEFA",
"gX c #FAFFFF",
"hX c #FDFEFE",
"jX c #FDFEFC",
"kX c #F5F7F6",
"lX c #EAE9F0",
/* pixels */
"r.r.r.r.r.r.r.r.r.r.r.r.r.r.r.r.r.r.r.r.r.r.r.r.r.r.r.r.r.r.r.r.r.r.r.r.r.r.r.r.r.r.r.r.r.r.r.r.r.r.r.r.r.r.r.r.r.r.r.r.",
"r.r.r.r.r.r.r.r.r.r.r.r.r.r.r.r.r.r.r.r.r.r.r.r.r.r.r.r.r.r.r.r.r.r.r.r.r.r.r.r.r.r.r.r.r.r.r.r.r.r.r.r.r.r.r.r.r.r.r.r.",
"r.r.r.r.r.r.r.r.r.r.r.r.r.r.r.r.r.r.r.r.r.r.r.r.r.r.r.r.r.r.r.r.r.r.r.r.r.r.r.r.r.r.r.r.r.r.r.r.r.r.r.r.r.r.r.r.r.r.r.r.",
"r.r.r.r.r.r.r.r.r.r.r.r.r.r.r.r.r.r.r.r.r.r.r.r.r.r.r.r.r.r.r.r.r.r.r.r.r.r.r.r.r.r.r.r.r.r.r.r.r.r.r.r.r.r.r.r.r.r.r.r.",
"r.r.r.r.r.r.r.r.r.r.r.r.r.r.r.r.r.r.r.r.r.r.r.r.r.r.r.r.r.r.r.r.r.r.r.r.r.r.r.r.r.r.r.r.r.r.r.r.r.r.r.r.r.r.r.r.r.r.r.r.",
"r.r.r.r.r.r.r.r.r.r.r.r.r.r.r.r.r.r.r.r.r.r.r.r.r.r.r.r.r.r.r.r.r.r.r.r.r.r.r.r.r.r.r.r.r.r.r.r.r.r.r.r.r.r.r.r.r.r.r.r.",
"r.r.r.r.r.r.r.r.r.r.r.r.r.r.r.r.r.r.r.r.r.r.r.r.r.r.r.r.r.r.r.r.r.r.r.r.r.r.r.r.r.r.r.r.r.r.r.r.r.r.r.r.r.r.r.r.r.r.r.r.",
"r.r.r.r.r.r.r.r.r.r.r.r.r.r.r.r.r.r.r.r.r.r.r.r.r.r.r.r.r.r.r.r.r.r.r.r.r.r.r.r.r.r.r.r.r.r.r.r.r.r.r.r.r.r.r.r.r.r.r.r.",
"r.r.r.r.r.r.r.r.r.r.r.r.r.r.r.r.r.r.r.r.r.r.r.r.r.r.r.r.r.r.r.r.r.r.r.r.r.r.r.r.r.r.r.r.r.r.r.r.r.r.r.r.r.r.r.r.r.r.r.r.",
"r.r.r.r.r.r.r.r.r.r.r.r.r.r.r.r.r.r.r.r.r.r.r.r.r.r.r.r.r.r.r.r.r.r.r.r.r.r.r.r.r.r.r.r.r.r.r.r.r.r.r.r.r.r.r.r.r.r.r.r.",
"r.r.r.r.r.r.r.r.r.r.r.r.r.r.r.r.r.r.r.r.r.r.r.r.r.r.r.r.r.r.r.r.r.r.r.r.r.r.r.r.r.r.r.r.r.r.r.r.r.r.r.r.r.r.r.r.r.r.r.r.",
"r.r.r.r.r.r.r.r.r.r.r.r.r.r.r.r.r.r.r.r.r.r.r.r.r.r.r.r.r.r.r.r.r.r.r.r.r.r.r.r.r.r.r.r.r.r.r.r.r.r.r.r.r.r.r.r.r.r.r.r.",
"r.r.r.r.r.r.r.r.r.r.r.r.r.r.r.r.r.r.r.r.r.r.r.r.r.r.r.r.r.r.r.r.r.r.r.r.r.r.r.r.r.r.r.r.r.r.r.r.r.r.r.r.r.r.r.r.r.r.r.r.",
"r.r.r.r.r.r.r.r.r.r.r.r.r.r.r.r.r.r.r.r.r.r.r.r.r.r.r.r.r.r.r.r.r.r.r.r.r.r.r.r.r.r.r.r.r.r.r.r.r.r.r.r.r.r.r.r.r.r.r.r.",
"r.r.r.r.r.r.r.r.r.r.r.r.r.r.r.r.r.r.r.r.r.r.r.r.r.r.r.r.r.r.r.r.r.r.r.r.r.r.r.r.r.r.r.r.r.r.r.r.r.r.r.r.r.r.r.r.r.r.r.r.",
"r.r.r.r.r.r.r.r.r.r.r.r.r.r.r.r.r.r.r.r.r.r.r.r.r.r.r.r.r.r.r.r.r.r.r.r.u.y.r.r.r.r.r.r.r.r.r.r.r.r.r.r.r.r.r.r.r.r.r.r.",
"K.K.r.y.y.y.u.r.y.r.r.r.r.r.r.r.r.r.r.r.i.w.i.r.r.K.r.r.I.r.2.K.2.u.u.y.V.i.r.2.G.G.r.y.y.u.u.u.u.y.r.r.r.r.r.r.r.r.r.r.",
"r.r.r.r.r.u.u.y.y.r.r.r.r.r.y.r.u.r.r.L.w.i.t.r.r.>.7.6.' k.k.6.z.8.<.t.y.i.r.K.K.K.r.y.r.r.r.y.r.r.r.r.r.r.r.r.u.u.r.r.",
"t.r.r.r.r.y.t.t.y.r.r.r.r.r.r.r.L.y.P.t.t.<.L.2.3.x.e @ & & * % + 9 l.a.2.<.r.i.u.u.u.r.2.2.r.r.r.r.r.r.r.y.t.y.r.r.r.r.",
"t.t.r.K.r.y.t.t.r.r.r.r.r.r.r.r.w.i.w.t.w.t.r.9.) 9 K `.).).(.(.'.O.8 ~ 9.2.t.w.y.B.u.r.2.2.r.r.r.r.r.r.r.r.r.t.r.r.r.K.",
"t.r.r.r.r.r.r.r.r.r.r.r.r.r.t.t.y.i.r.2.2.<.4.) J $ XXsXhXhXgXgXgX:X: m [ 5.1.t.i.i.u.u.r.t.u.y.r.r.r.r.r.r.r.r.y.r.r.r.",
"u.u.r.r.r.r.r.r.r.r.r.r.r.r.t.i.i.y.r.K.I.1.E.7 w sXkXkXyXyXiXuXyXhXgXq 8 b.;.1.<.<.r.y.u.i.i.i.r.r.r.r.r.r.r.r.r.r.r.r.",
"u.u.y.y.r.r.r.r.r.r.K.r.y.y.r.u.i.w.r.2.2.;.e | XXiXuXuXfXiXiXiXfXhXsXXX ., g.n.s.s.U.P.i.u.r.r.t.t.y.r.r.r.r.r.r.t.r.r.",
"u.y.t.y.r.r.r.r.r.r.K.r.y.y.r.r.e.p.a.1.9.[ O ].yXiXiX9XfXfXuXuXhXhXpXsX'.. A S P V P Q f.i.r.2.t.t.t.u.u.r.r.r.r.r.t.t.",
"t.t.y.r.r.r.y.r.i.y.L.r.r.r.2.>.z.] g.] j.^ O _.fXuX9XfXjXhXfXfXhXhXkXhX'.  - $ $ # # 9 v.7.r.r.r.w.i.u.i.u.u.y.r.r.r.r.",
"t.r.r.r.r.r.r.y.P.w.t.P.<.1.n.E.9 * * ; $ % o `.hXiXfXfXhXhXpXhXaXhXhXgX(.  {.aXlX8XqX.X$ W Y.2.K.P.u.u.w.u.u.u.r.r.r.r.",
"r.r.r.r.r.r.r.r.y.P.<.1.R.I y a | o.X.X.(.X.X `.pXhXhXfXiXyXhXhXhXhXyXrX Xl 7XsXiXuXgX<Xo.s V Y.2.K.r.L.W.y.u.u.u.r.r.K.",
"r.r.K.r.r.r.r.r.u.r.1.;.[ p < = <XhXiXfXpXqX- ].rXtXsXfXiXyXgXhXaXhXrX5XOX=.5XgXuXuXfXgXgXq y z.3.r.K.r.u.y.i.u.u.K.r.K.",
"r.r.r.r.r.K.r.r.r.>.0.{ + L sXqXsXyXfXiXuXsX6X-.F.3XrXyX9X9XiXhXfXrX3X!.D.3XrXyXjXfXiXgXgXw a Q.z.1.G.2.r.u.y.i.u.r.r.K.",
"r.r.r.r.r.r.y.r.2.U.I c [.>XhXuXiXfXfXiXuXwXeXF._ !.$XyX9X9XiXhXfXeX!.R =.eXsXhXhXjXfXdXdX5 & r f ] 4.G.L.r.y.y.y.r.r.r.",
"t.t.r.r.t.t.r.r.2.s.z < gXhX9X9XuXfXfXuXuXyXeX XA._ +XrXiX9XhXhXhXdX}.~.oXrXgXhXhXyXyXrX1XN w j h H k.H.2.r.i.y.t.r.r.r.",
"t.t.r.r.t.t.r.r.,.x.s 6 hXjX9X9XuXfXfXfXuXyXrX6X*X#.%XdXiXuXhXhXhXdXeXeXrXsXhXjXyXsXrX$X..3XdXsX,XO Y k.,.K.w.i.y.r.r.r.",
"2.r.K.K.r.y.t.3.q.u n qXhXfXiXiXfXfXfXuXiXiXyXrX6X6XsXpXfXiXhXyXiXyXsXrXwXyXiXfXhXrX#X@.@.2XrXgXqX:XM i q.2.r.u.u.r.r.r.",
"r.r.r.K.L.r.t.5.T., n gXpXfXfXuXfXiXuXuX9X0XiXyXyXyXjXjXfXfXfXfXfXiXkXyXyXuXuXuXhXrX;X~.|.6XrXyXfXsXN 1 c.2.L.u.u.r.r.r.",
"u.u.r.K.L.u.t.7.l.3 n eXsXfXyXiXiXiXfXiXfXfXfXyX0XiXiXfXfXiXiXuXuXfXfXfXfXiXhXhXpXsXdXdXrXdXyXyXpXgXM 3 T.,.u.u.u.r.r.r.",
"u.u.r.u.u.u.y.p.M.e e [.eXeXsXyXiXyXfXiXhXhXpXsXrXeXdXhXjXfXuXfXiXfXiXfXhXgXsXrXdXdXiXiXiXuXiXyXrXrXn 0 n.2.u.u.r.r.r.r.",
"r.r.i.u.u.u.r.r.1.Q g v ^.~.7XsXyXyXyXhXhXhXsX%X!.~.5XgXfXfXfXfXhXhXfXfXhXdX6X X$XeXsXfXiXiXuXdX2X|.h t z.r.r.L.r.t.t.t.",
"2.r.i.i.u.u.r.r.2.R.F < } ` =X5X5X5X5X5X3X3X1X X#.*.5XgXjXuXuXfXhXhXfXyXwXeX2X+.*.-X6XrXrXeX6X5X&XT r g 8.<.L.y.r.r.t.t.",
"r.r.r.r.u.u.u.r.,.J.B < b.[ l.x.k.' c.x.m.v./ OX3X5XdXhXjXfXuXfXhXhXfXyXrX5X*Xj.) l.=X3X-X2X/._ +.& D 0.2.I.w.i.r.r.r.t.",
"r.r.r.r.u.u.y.r.2.9.) U 1 U m.8.0.0.0.s.s.n.g.@X5XrXsXhXfXuXuXfXhXgXsXrX#X*.Q.v.x.l.Z.S.S.Z.b.E < W ) ,.r.r.y.t.r.r.r.t.",
"r.r.r.r.i.i.y.r.u.u.i.:.x B Z C C A C C Z Z b *.+XeXsXfXuXuXfXfXyXrXeX&XQ.j.( f z v s h k G v B B ;.U.<.r.i.w.t.r.r.t.t.",
"r.r.r.r.t.t.r.r.u.u.u.w.N.x 2 , 1 < 3 < 3 1 , c &.2X4X7X7X6X6X6X6X5X3XC.[ h.S < 1 < < 3 4 > 3 x n.a.<.r.P.r.w.i.r.r.t.t.",
"r.r.r.r.2.r.r.r.i.y.I.2.1.7.9.7.8.;.d.s.:.:.l.d 7 =.*.$.C.C.$.C.*.*.%.Z.^ & f z.5.7.7.5.8.6.5.7.1.t.P.r.r.K.L.r.r.r.t.t.",
"r.r.r.r.K.K.r.r.t.r.>.2.r.r.<.K.y.y.L.y.w.e.s.! x 9 y p i i d i y y u e B Y Q a.r.K.K.2.2.G.2.2.r.r.r.r.r.K.L.r.r.y.y.r.",
"r.r.r.r.r.r.r.2.2.2.i.u.i.i.i.w.i.i.2.2.P.2.>.J.) i f f p p f p z f d i I R.e.<.r.2.2.2.2.2.r.L.L.r.r.r.K.K.r.r.t.t.r.r.",
"r.r.r.r.r.r.r.G.2.r.u.B.w.y.w.i.w.i.r.I.2.2.G.,.a.n.M.k.x.x.k.x.z.M.M.z.p.t.r.K.r.r.t.t.r.P.r.r.w.L.u.r.r.r.r.t.t.t.u.L.",
"u.u.u.r.r.r.r.r.y.y.u.u.L.r.r.2.L.y.r.r.2.P.r.r.w.e.w.t.e.e.1.3.<.t.w.e.i.w.K.2.r.w.u.i.u.u.u.L.i.i.y.r.r.r.r.t.t.i.u.u.",
"u.u.u.y.r.r.r.r.u.u.u.r.r.r.K.K.r.L.y.i.r.<.L.u.i.y.u.u.u.u.y.r.r.r.u.y.i.r.2.K.r.t.i.u.u.i.i.<.y.t.u.r.r.r.r.w.t.u.u.u.",
"u.r.r.r.r.r.r.r.r.r.r.r.r.r.r.r.r.r.r.r.r.r.r.r.r.r.r.r.r.r.r.r.r.r.r.r.y.r.r.r.r.r.y.u.u.r.r.r.r.r.r.r.r.r.r.r.r.y.r.r.",
"r.r.r.r.r.r.r.r.r.r.r.r.r.r.r.r.r.r.r.r.r.r.r.r.r.r.r.r.r.r.r.r.r.r.r.r.r.r.r.r.r.r.r.r.r.r.r.r.r.r.r.r.r.r.r.r.r.r.r.r.",
"r.r.r.r.r.r.r.r.r.r.r.r.r.r.r.r.r.r.r.r.r.r.r.r.r.r.r.r.r.r.r.r.r.r.r.r.r.r.r.r.r.r.r.r.r.r.r.r.r.r.r.r.r.r.r.r.r.r.r.r.",
"r.r.r.r.r.r.r.r.r.r.r.r.r.r.r.r.r.r.r.r.r.r.r.r.r.r.r.r.r.r.r.r.r.r.r.r.r.r.r.r.r.r.r.r.r.r.r.r.r.r.r.r.r.r.r.r.r.r.r.r.",
"r.r.r.r.r.r.r.r.r.r.r.r.r.r.r.r.r.r.r.r.r.r.r.r.r.r.r.r.r.r.r.r.r.r.r.r.r.r.r.r.r.r.r.r.r.r.r.r.r.r.r.r.r.r.r.r.r.r.r.r.",
"r.r.r.r.r.r.r.r.r.r.r.r.r.r.r.r.r.r.r.r.r.r.r.r.r.r.r.r.r.r.r.r.r.r.r.r.r.r.r.r.r.r.r.r.r.r.r.r.r.r.r.r.r.r.r.r.r.r.r.r.",
"r.r.r.r.r.r.r.r.r.r.r.r.r.r.r.r.r.r.r.r.r.r.r.r.r.r.r.r.r.r.r.r.r.r.r.r.r.r.r.r.r.r.r.r.r.r.r.r.r.r.r.r.r.r.r.r.r.r.r.r.",
"r.r.r.r.r.r.r.r.r.r.r.r.r.r.r.r.r.r.r.r.r.r.r.r.r.r.r.r.r.r.r.r.r.r.r.r.r.r.r.r.r.r.r.r.r.r.r.r.r.r.r.r.r.r.r.r.r.r.r.r.",
"r.r.r.r.r.r.r.r.r.r.r.r.r.r.r.r.r.r.r.r.r.r.r.r.r.r.r.r.r.r.r.r.r.r.r.r.r.r.r.r.r.r.r.r.r.r.r.r.r.r.r.r.r.r.r.r.r.r.r.r.",
"r.r.r.r.r.r.r.r.r.r.r.r.r.r.r.r.r.r.r.r.r.r.r.r.r.r.r.r.r.r.r.r.r.r.r.r.r.r.r.r.r.r.r.r.r.r.r.r.r.r.r.r.r.r.r.r.r.r.r.r.",
"r.r.r.r.r.r.r.r.r.r.r.r.r.r.r.r.r.r.r.r.r.r.r.r.r.r.r.r.r.r.r.r.r.r.r.r.r.r.r.r.r.r.r.r.r.r.r.r.r.r.r.r.r.r.r.r.r.r.r.r.",
"r.r.r.r.r.r.r.r.r.r.r.r.r.r.r.r.r.r.r.r.r.r.r.r.r.r.r.r.r.r.r.r.r.r.r.r.r.r.r.r.r.r.r.r.r.r.r.r.r.r.r.r.r.r.r.r.r.r.r.r."
};
